; generated by Slic3r 1.37.2.1-prusa3d-linux64 on 2020-04-05 at 17:33:19

; 

; external perimeters extrusion width = 0.45mm
; perimeters extrusion width = 0.45mm
; infill extrusion width = 0.45mm
; solid infill extrusion width = 0.45mm
; top infill extrusion width = 0.40mm
; first layer extrusion width = 0.42mm

M107 ; disable fan
M115 U3.4.0 ; tell printer latest fw version
M83  ; extruder relative mode
M104 S215 ; set extruder temp
M140 S60 ; set bed temp
M190 S60 ; wait for bed temp
M109 S215 ; wait for extruder temp
G28 W ; home all without mesh bed level
G80 ; mesh bed leveling
G1 Y-3.0 F1000.0 ; go outside print area
G92 E0.0
G1 X60.0 E9.0  F1000.0 ; intro line
G1 X100.0 E12.5  F1000.0 ; intro line
G92 E0.0
M221 S95
M900 K30
G21 ; set units to millimeters
G90 ; use absolute coordinates
M83 ; use relative distances for extrusion
;BEFORE_LAYER_CHANGE
G92 E0.0
;0.2


G1 E-0.80000 F2100.00000 ; retract
G1 Z0.600 F10800.000 ; lift Z
;AFTER_LAYER_CHANGE
;0.2
G1 X216.542 Y168.570 F10800.000 ; move to first skirt point
G1 Z0.200 F10800.000 ; restore layer Z
G1 E0.80000 F2100.00000 ; unretract
M204 S1000 ; adjust acceleration
G1 F1200
G1 X215.902 Y169.231 E0.02884 ; skirt
G1 X215.258 Y169.546 E0.02249 ; skirt
G1 X214.553 Y169.654 E0.02237 ; skirt
G1 X30.445 Y169.654 E5.77258 ; skirt
G1 X29.879 Y169.584 E0.01787 ; skirt
G1 X29.350 Y169.383 E0.01775 ; skirt
G1 X28.880 Y169.060 E0.01787 ; skirt
G1 X28.501 Y168.634 E0.01787 ; skirt
G1 X28.258 Y168.191 E0.01585 ; skirt
G1 X28.114 Y167.702 E0.01597 ; skirt
G1 X21.012 Y127.400 E1.28313 ; skirt
G1 X20.860 Y126.410 E0.03139 ; skirt
G1 X20.748 Y124.636 E0.05574 ; skirt
G1 X25.715 Y93.239 E0.99667 ; skirt
G1 X25.887 Y92.672 E0.01858 ; skirt
G1 X26.383 Y91.742 E0.03303 ; skirt
G1 X51.840 Y66.616 E1.12152 ; skirt
G1 X56.674 Y62.355 E0.20203 ; skirt
G1 X61.743 Y58.422 E0.20117 ; skirt
G1 X67.229 Y54.693 E0.20797 ; skirt
G1 X72.755 Y51.426 E0.20129 ; skirt
G1 X78.468 Y48.514 E0.20105 ; skirt
G1 X84.555 Y45.880 E0.20797 ; skirt
G1 X90.654 Y43.688 E0.20320 ; skirt
G1 X121.248 Y34.825 E0.99870 ; skirt
G1 X122.493 Y34.641 E0.03945 ; skirt
G1 X123.753 Y34.825 E0.03993 ; skirt
G1 X154.345 Y43.688 E0.99865 ; skirt
G1 X160.444 Y45.880 E0.20320 ; skirt
G1 X166.532 Y48.514 E0.20799 ; skirt
G1 X172.248 Y51.428 E0.20114 ; skirt
G1 X177.771 Y54.693 E0.20117 ; skirt
G1 X183.257 Y58.422 E0.20799 ; skirt
G1 X188.325 Y62.355 E0.20114 ; skirt
G1 X193.162 Y66.617 E0.20212 ; skirt
G1 X218.621 Y91.749 E1.12167 ; skirt
G1 X219.111 Y92.668 E0.03267 ; skirt
G1 X219.282 Y93.240 E0.01870 ; skirt
G1 X224.225 Y124.209 E0.98333 ; skirt
G1 X224.226 Y125.461 E0.03926 ; skirt
G1 X223.989 Y127.393 E0.06101 ; skirt
G1 X216.883 Y167.720 E1.28391 ; skirt
G1 X216.564 Y168.514 E0.02684 ; skirt
G1 F8640
G1 X215.902 Y169.231 E-0.22526 ; wipe and retract
G1 F8640
G1 X215.258 Y169.546 E-0.16559 ; wipe and retract
G1 F8640
G1 X214.553 Y169.654 E-0.16472 ; wipe and retract
G1 F8640
G1 X213.667 Y169.654 E-0.20443 ; wipe and retract
G1 E-0.04000 F2100.00000 ; retract
G1 Z0.800 F10800.000 ; lift Z
G1 X38.585 Y91.221 F10800.000 ; move to first perimeter point
G1 Z0.200 F10800.000 ; restore layer Z
G1 E0.80000 F2100.00000 ; unretract
G1 F1200
G1 X38.098 Y91.003 E0.01674 ; perimeter
G1 X37.847 Y90.926 E0.00823 ; perimeter
G1 X37.067 Y90.819 E0.02469 ; perimeter
G1 X38.424 Y88.525 E0.08356 ; perimeter
G1 X38.823 Y88.676 E0.01340 ; perimeter
G1 X38.661 Y89.887 E0.03833 ; perimeter
G1 X38.589 Y91.161 E0.04000 ; perimeter
G1 X38.463 Y91.602 F10800.000 ; move inwards before travel
G1 F8640
G1 X38.098 Y91.003 E-0.11908 ; wipe and retract
G1 F8640
G1 X37.847 Y90.926 E-0.06061 ; wipe and retract
G1 F8640
G1 X37.067 Y90.819 E-0.18181 ; wipe and retract
G1 F8640
G1 X37.945 Y89.333 E-0.39850 ; wipe and retract
G1 E-0.04000 F2100.00000 ; retract
G1 Z0.800 F10800.000 ; lift Z
G1 X121.717 Y41.968 F10800.000 ; move to first perimeter point
G1 Z0.200 F10800.000 ; restore layer Z
G1 E0.80000 F2100.00000 ; unretract
G1 F1200
G1 X121.717 Y42.447 E0.01501 ; perimeter
G1 X123.283 Y42.447 E0.04910 ; perimeter
G1 X123.283 Y41.968 E0.01501 ; perimeter
G1 X128.768 Y42.141 E0.17208 ; perimeter
G1 X135.022 Y42.732 E0.19696 ; perimeter
G1 X141.226 Y43.714 E0.19695 ; perimeter
G1 X147.357 Y45.085 E0.19695 ; perimeter
G1 X153.389 Y46.837 E0.19696 ; perimeter
G1 X159.299 Y48.965 E0.19695 ; perimeter
G1 X159.549 Y49.073 E0.00855 ; perimeter
G1 X165.064 Y51.460 E0.18840 ; perimeter
G1 X170.661 Y54.311 E0.19695 ; perimeter
G1 X176.068 Y57.509 E0.19695 ; perimeter
G1 X181.263 Y61.040 E0.19695 ; perimeter
G1 X186.226 Y64.890 E0.19696 ; perimeter
G1 X190.938 Y69.044 E0.19695 ; perimeter
G1 X195.380 Y73.486 E0.19696 ; perimeter
G1 X199.534 Y78.197 E0.19695 ; perimeter
G1 X203.384 Y83.161 E0.19696 ; perimeter
G1 X204.279 Y84.478 E0.04993 ; perimeter
G1 X204.456 Y84.800 E0.01151 ; perimeter
G1 X204.837 Y85.609 E0.02805 ; perimeter
G1 X205.166 Y86.441 E0.02805 ; perimeter
G1 X205.443 Y87.292 E0.02805 ; perimeter
G1 X205.665 Y88.158 E0.02805 ; perimeter
G1 X205.833 Y89.037 E0.02805 ; perimeter
G1 X205.945 Y89.925 E0.02805 ; perimeter
G1 X206.001 Y90.817 E0.02805 ; perimeter
G1 X206.001 Y91.712 E0.02805 ; perimeter
G1 X205.945 Y92.605 E0.02805 ; perimeter
G1 X205.833 Y93.492 E0.02805 ; perimeter
G1 X205.665 Y94.371 E0.02805 ; perimeter
G1 X205.443 Y95.238 E0.02805 ; perimeter
G1 X205.177 Y96.055 E0.02695 ; perimeter
G1 X204.837 Y96.920 E0.02913 ; perimeter
G1 X204.456 Y97.730 E0.02807 ; perimeter
G1 X204.025 Y98.514 E0.02805 ; perimeter
G1 X203.546 Y99.269 E0.02805 ; perimeter
G1 X203.020 Y99.993 E0.02805 ; perimeter
G1 X202.450 Y100.682 E0.02805 ; perimeter
G1 X201.837 Y101.334 E0.02805 ; perimeter
G1 X201.185 Y101.947 E0.02805 ; perimeter
G1 X200.496 Y102.517 E0.02805 ; perimeter
G1 X199.772 Y103.043 E0.02805 ; perimeter
G1 X199.017 Y103.522 E0.02805 ; perimeter
G1 X198.233 Y103.953 E0.02805 ; perimeter
G1 X197.423 Y104.334 E0.02805 ; perimeter
G1 X196.591 Y104.663 E0.02805 ; perimeter
G1 X195.741 Y104.940 E0.02805 ; perimeter
G1 X194.908 Y105.153 E0.02695 ; perimeter
G1 X193.996 Y105.330 E0.02913 ; perimeter
G1 X193.108 Y105.442 E0.02807 ; perimeter
G1 X192.215 Y105.498 E0.02805 ; perimeter
G1 X191.320 Y105.498 E0.02805 ; perimeter
G1 X190.427 Y105.442 E0.02805 ; perimeter
G1 X189.575 Y105.334 E0.02695 ; perimeter
G1 X188.662 Y105.162 E0.02913 ; perimeter
G1 X187.795 Y104.940 E0.02807 ; perimeter
G1 X186.944 Y104.663 E0.02805 ; perimeter
G1 X186.145 Y104.347 E0.02695 ; perimeter
G1 X185.303 Y103.953 E0.02913 ; perimeter
G1 X184.519 Y103.522 E0.02807 ; perimeter
G1 X183.763 Y103.043 E0.02805 ; perimeter
G1 X183.039 Y102.517 E0.02805 ; perimeter
G1 X182.350 Y101.947 E0.02805 ; perimeter
G1 X181.815 Y101.444 E0.02303 ; perimeter
G1 X181.274 Y101.024 E0.02145 ; perimeter
G1 X176.078 Y97.493 E0.19699 ; perimeter
G1 X170.670 Y94.295 E0.19699 ; perimeter
G1 X165.072 Y91.443 E0.19699 ; perimeter
G1 X159.306 Y88.947 E0.19699 ; perimeter
G1 X153.395 Y86.819 E0.19699 ; perimeter
G1 X147.361 Y85.066 E0.19699 ; perimeter
G1 X141.230 Y83.696 E0.19699 ; perimeter
G1 X140.993 Y83.658 E0.00752 ; perimeter
G1 X135.025 Y82.713 E0.18947 ; perimeter
G1 X128.770 Y82.122 E0.19699 ; perimeter
G1 X122.490 Y81.924 E0.19699 ; perimeter
G1 X116.230 Y82.122 E0.19636 ; perimeter
G1 X109.975 Y82.713 E0.19699 ; perimeter
G1 X103.770 Y83.696 E0.19699 ; perimeter
G1 X97.639 Y85.066 E0.19699 ; perimeter
G1 X91.605 Y86.819 E0.19699 ; perimeter
G1 X85.694 Y88.947 E0.19699 ; perimeter
G1 X79.928 Y91.443 E0.19699 ; perimeter
G1 X74.330 Y94.295 E0.19699 ; perimeter
G1 X68.922 Y97.493 E0.19699 ; perimeter
G1 X63.726 Y101.024 E0.19699 ; perimeter
G1 X63.185 Y101.444 E0.02145 ; perimeter
G1 X62.650 Y101.947 E0.02303 ; perimeter
G1 X61.961 Y102.517 E0.02805 ; perimeter
G1 X61.237 Y103.043 E0.02805 ; perimeter
G1 X60.481 Y103.522 E0.02805 ; perimeter
G1 X59.697 Y103.953 E0.02807 ; perimeter
G1 X58.855 Y104.347 E0.02913 ; perimeter
G1 X58.056 Y104.663 E0.02695 ; perimeter
G1 X57.205 Y104.940 E0.02805 ; perimeter
G1 X56.338 Y105.162 E0.02807 ; perimeter
G1 X55.425 Y105.334 E0.02913 ; perimeter
G1 X54.573 Y105.442 E0.02695 ; perimeter
G1 X53.680 Y105.498 E0.02805 ; perimeter
G1 X52.785 Y105.498 E0.02805 ; perimeter
G1 X51.892 Y105.442 E0.02805 ; perimeter
G1 X51.004 Y105.330 E0.02807 ; perimeter
G1 X50.092 Y105.153 E0.02913 ; perimeter
G1 X49.259 Y104.940 E0.02695 ; perimeter
G1 X48.409 Y104.663 E0.02805 ; perimeter
G1 X47.577 Y104.334 E0.02805 ; perimeter
G1 X46.767 Y103.953 E0.02805 ; perimeter
G1 X45.983 Y103.522 E0.02805 ; perimeter
G1 X45.228 Y103.043 E0.02805 ; perimeter
G1 X44.504 Y102.517 E0.02805 ; perimeter
G1 X43.815 Y101.947 E0.02805 ; perimeter
G1 X43.163 Y101.334 E0.02805 ; perimeter
G1 X42.550 Y100.682 E0.02805 ; perimeter
G1 X41.980 Y99.993 E0.02805 ; perimeter
G1 X41.454 Y99.269 E0.02805 ; perimeter
G1 X40.975 Y98.514 E0.02805 ; perimeter
G1 X40.544 Y97.730 E0.02805 ; perimeter
G1 X40.163 Y96.920 E0.02807 ; perimeter
G1 X39.823 Y96.055 E0.02913 ; perimeter
G1 X39.557 Y95.238 E0.02695 ; perimeter
G1 X39.335 Y94.371 E0.02805 ; perimeter
G1 X39.167 Y93.492 E0.02805 ; perimeter
G1 X39.055 Y92.605 E0.02805 ; perimeter
G1 X38.999 Y91.712 E0.02805 ; perimeter
G1 X38.999 Y90.817 E0.02805 ; perimeter
G1 X39.055 Y89.925 E0.02805 ; perimeter
G1 X39.167 Y89.037 E0.02805 ; perimeter
G1 X39.335 Y88.158 E0.02805 ; perimeter
G1 X39.557 Y87.292 E0.02805 ; perimeter
G1 X39.834 Y86.441 E0.02805 ; perimeter
G1 X40.163 Y85.609 E0.02805 ; perimeter
G1 X40.544 Y84.800 E0.02805 ; perimeter
G1 X40.721 Y84.478 E0.01151 ; perimeter
G1 X41.616 Y83.161 E0.04993 ; perimeter
G1 X45.466 Y78.197 E0.19695 ; perimeter
G1 X49.620 Y73.486 E0.19695 ; perimeter
G1 X54.062 Y69.044 E0.19696 ; perimeter
G1 X58.774 Y64.890 E0.19695 ; perimeter
G1 X63.737 Y61.040 E0.19696 ; perimeter
G1 X68.932 Y57.509 E0.19695 ; perimeter
G1 X74.339 Y54.311 E0.19695 ; perimeter
G1 X79.936 Y51.460 E0.19695 ; perimeter
G1 X85.451 Y49.073 E0.18840 ; perimeter
G1 X85.701 Y48.965 E0.00855 ; perimeter
G1 X91.611 Y46.837 E0.19695 ; perimeter
G1 X97.643 Y45.085 E0.19696 ; perimeter
G1 X103.774 Y43.714 E0.19695 ; perimeter
G1 X109.978 Y42.732 E0.19695 ; perimeter
G1 X116.232 Y42.141 E0.19696 ; perimeter
G1 X121.657 Y41.970 E0.17020 ; perimeter
G1 X121.340 Y42.357 F10800.000 ; move to first perimeter point
G1 F1200
G1 X121.340 Y42.824 E0.01463 ; perimeter
G1 X123.660 Y42.824 E0.07274 ; perimeter
G1 X123.660 Y42.357 E0.01463 ; perimeter
G1 X128.745 Y42.517 E0.15951 ; perimeter
G1 X134.975 Y43.106 E0.19621 ; perimeter
G1 X141.156 Y44.085 E0.19621 ; perimeter
G1 X147.263 Y45.450 E0.19621 ; perimeter
G1 X153.272 Y47.196 E0.19621 ; perimeter
G1 X159.160 Y49.316 E0.19621 ; perimeter
G1 X159.400 Y49.419 E0.00818 ; perimeter
G1 X164.903 Y51.801 E0.18803 ; perimeter
G1 X170.479 Y54.642 E0.19621 ; perimeter
G1 X175.865 Y57.827 E0.19621 ; perimeter
G1 X181.041 Y61.345 E0.19621 ; perimeter
G1 X185.986 Y65.180 E0.19621 ; perimeter
G1 X190.680 Y69.319 E0.19621 ; perimeter
G1 X195.105 Y73.744 E0.19621 ; perimeter
G1 X199.243 Y78.438 E0.19621 ; perimeter
G1 X203.079 Y83.383 E0.19621 ; perimeter
G1 X203.957 Y84.675 E0.04900 ; perimeter
G1 X204.120 Y84.971 E0.01058 ; perimeter
G1 X204.491 Y85.759 E0.02731 ; perimeter
G1 X204.811 Y86.569 E0.02731 ; perimeter
G1 X205.080 Y87.397 E0.02731 ; perimeter
G1 X205.297 Y88.240 E0.02731 ; perimeter
G1 X205.460 Y89.096 E0.02731 ; perimeter
G1 X205.569 Y89.960 E0.02731 ; perimeter
G1 X205.624 Y90.829 E0.02731 ; perimeter
G1 X205.624 Y91.700 E0.02730 ; perimeter
G1 X205.569 Y92.569 E0.02731 ; perimeter
G1 X205.460 Y93.433 E0.02731 ; perimeter
G1 X205.297 Y94.289 E0.02731 ; perimeter
G1 X205.080 Y95.132 E0.02731 ; perimeter
G1 X204.822 Y95.928 E0.02622 ; perimeter
G1 X204.491 Y96.770 E0.02839 ; perimeter
G1 X204.120 Y97.558 E0.02731 ; perimeter
G1 X203.700 Y98.322 E0.02731 ; perimeter
G1 X203.234 Y99.057 E0.02731 ; perimeter
G1 X202.722 Y99.762 E0.02731 ; perimeter
G1 X202.167 Y100.433 E0.02730 ; perimeter
G1 X201.570 Y101.067 E0.02731 ; perimeter
G1 X200.936 Y101.664 E0.02731 ; perimeter
G1 X200.265 Y102.219 E0.02731 ; perimeter
G1 X199.560 Y102.731 E0.02731 ; perimeter
G1 X198.825 Y103.197 E0.02731 ; perimeter
G1 X198.061 Y103.617 E0.02731 ; perimeter
G1 X197.273 Y103.988 E0.02731 ; perimeter
G1 X196.464 Y104.308 E0.02731 ; perimeter
G1 X195.635 Y104.577 E0.02731 ; perimeter
G1 X194.825 Y104.785 E0.02622 ; perimeter
G1 X193.937 Y104.957 E0.02839 ; perimeter
G1 X193.072 Y105.066 E0.02731 ; perimeter
G1 X192.203 Y105.121 E0.02731 ; perimeter
G1 X191.332 Y105.121 E0.02731 ; perimeter
G1 X190.463 Y105.066 E0.02730 ; perimeter
G1 X189.633 Y104.962 E0.02622 ; perimeter
G1 X188.744 Y104.794 E0.02838 ; perimeter
G1 X187.900 Y104.577 E0.02731 ; perimeter
G1 X187.072 Y104.308 E0.02731 ; perimeter
G1 X186.294 Y104.001 E0.02622 ; perimeter
G1 X185.474 Y103.617 E0.02839 ; perimeter
G1 X184.711 Y103.197 E0.02731 ; perimeter
G1 X183.975 Y102.731 E0.02731 ; perimeter
G1 X183.271 Y102.219 E0.02731 ; perimeter
G1 X182.600 Y101.664 E0.02731 ; perimeter
G1 X182.161 Y101.235 E0.01921 ; perimeter
G1 X181.496 Y100.719 E0.02641 ; perimeter
G1 X176.280 Y97.174 E0.19774 ; perimeter
G1 X170.852 Y93.964 E0.19773 ; perimeter
G1 X165.233 Y91.101 E0.19773 ; perimeter
G1 X159.445 Y88.597 E0.19774 ; perimeter
G1 X153.511 Y86.460 E0.19773 ; perimeter
G1 X147.455 Y84.701 E0.19773 ; perimeter
G1 X141.301 Y83.325 E0.19774 ; perimeter
G1 X141.052 Y83.286 E0.00790 ; perimeter
G1 X135.072 Y82.339 E0.18984 ; perimeter
G1 X128.793 Y81.745 E0.19773 ; perimeter
G1 X122.490 Y81.547 E0.19773 ; perimeter
G1 X116.207 Y81.745 E0.19711 ; perimeter
G1 X109.928 Y82.339 E0.19773 ; perimeter
G1 X103.699 Y83.325 E0.19773 ; perimeter
G1 X97.545 Y84.701 E0.19773 ; perimeter
G1 X91.489 Y86.460 E0.19773 ; perimeter
G1 X85.555 Y88.597 E0.19773 ; perimeter
G1 X79.767 Y91.101 E0.19774 ; perimeter
G1 X74.148 Y93.964 E0.19773 ; perimeter
G1 X68.720 Y97.174 E0.19773 ; perimeter
G1 X63.504 Y100.719 E0.19774 ; perimeter
G1 X62.839 Y101.235 E0.02639 ; perimeter
G1 X62.400 Y101.664 E0.01923 ; perimeter
G1 X61.729 Y102.219 E0.02731 ; perimeter
G1 X61.025 Y102.731 E0.02731 ; perimeter
G1 X60.289 Y103.197 E0.02731 ; perimeter
G1 X59.526 Y103.617 E0.02731 ; perimeter
G1 X58.706 Y104.001 E0.02839 ; perimeter
G1 X57.928 Y104.308 E0.02622 ; perimeter
G1 X57.100 Y104.577 E0.02731 ; perimeter
G1 X56.256 Y104.794 E0.02731 ; perimeter
G1 X55.367 Y104.962 E0.02838 ; perimeter
G1 X54.537 Y105.066 E0.02622 ; perimeter
G1 X53.668 Y105.121 E0.02730 ; perimeter
G1 X52.797 Y105.121 E0.02731 ; perimeter
G1 X51.928 Y105.066 E0.02731 ; perimeter
G1 X51.063 Y104.957 E0.02731 ; perimeter
G1 X50.175 Y104.785 E0.02839 ; perimeter
G1 X49.365 Y104.577 E0.02622 ; perimeter
G1 X48.536 Y104.308 E0.02731 ; perimeter
G1 X47.727 Y103.988 E0.02731 ; perimeter
G1 X46.939 Y103.617 E0.02731 ; perimeter
G1 X46.175 Y103.197 E0.02731 ; perimeter
G1 X45.440 Y102.731 E0.02731 ; perimeter
G1 X44.735 Y102.219 E0.02731 ; perimeter
G1 X44.064 Y101.664 E0.02731 ; perimeter
G1 X43.430 Y101.067 E0.02731 ; perimeter
G1 X42.833 Y100.433 E0.02731 ; perimeter
G1 X42.278 Y99.762 E0.02730 ; perimeter
G1 X41.766 Y99.057 E0.02731 ; perimeter
G1 X41.300 Y98.322 E0.02731 ; perimeter
G1 X40.880 Y97.558 E0.02731 ; perimeter
G1 X40.509 Y96.770 E0.02731 ; perimeter
G1 X40.178 Y95.928 E0.02839 ; perimeter
G1 X39.920 Y95.132 E0.02622 ; perimeter
G1 X39.703 Y94.289 E0.02731 ; perimeter
G1 X39.540 Y93.433 E0.02731 ; perimeter
G1 X39.431 Y92.569 E0.02731 ; perimeter
G1 X39.376 Y91.700 E0.02731 ; perimeter
G1 X39.376 Y90.829 E0.02730 ; perimeter
G1 X39.431 Y89.960 E0.02731 ; perimeter
G1 X39.540 Y89.096 E0.02731 ; perimeter
G1 X39.703 Y88.240 E0.02731 ; perimeter
G1 X39.920 Y87.397 E0.02731 ; perimeter
G1 X40.189 Y86.569 E0.02731 ; perimeter
G1 X40.509 Y85.759 E0.02731 ; perimeter
G1 X40.880 Y84.971 E0.02731 ; perimeter
G1 X41.043 Y84.675 E0.01058 ; perimeter
G1 X41.921 Y83.383 E0.04900 ; perimeter
G1 X45.757 Y78.438 E0.19621 ; perimeter
G1 X49.895 Y73.744 E0.19621 ; perimeter
G1 X54.320 Y69.319 E0.19621 ; perimeter
G1 X59.014 Y65.180 E0.19621 ; perimeter
