; generated by PrusaSlicer 2.2.0+linux-x64 on 2020-04-18 at 17:21:51 UTC

; 

; external perimeters extrusion width = 0.60mm
; perimeters extrusion width = 0.50mm
; infill extrusion width = 0.50mm
; solid infill extrusion width = 0.50mm
; top infill extrusion width = 0.45mm
; first layer extrusion width = 0.42mm

M73 P0 R130
M73 Q0 S133
M201 X1000 Y1000 Z1000 E5000 ; sets maximum accelerations, mm/sec^2
M203 X200 Y200 Z12 E120 ; sets maximum feedrates, mm/sec
M204 P1250 R1250 T1250 ; sets acceleration (P, T) and retract acceleration (R), mm/sec^2
M205 X8.00 Y8.00 Z0.40 E4.50 ; sets the jerk limits, mm/sec
M205 S0 T0 ; sets the minimum extruding and travel feed rate, mm/sec
M107
M862.3 P "MK3" ; printer model check
M862.1 P0.4 ; nozzle diameter check
M115 U3.8.1 ; tell printer latest fw version
G90 ; use absolute coordinates
M83 ; extruder relative mode
M104 S240 ; set extruder temp
M140 S85 ; set bed temp
M190 S85 ; wait for bed temp
M109 S240 ; wait for extruder temp
G28 W ; home all without mesh bed level
G80 ; mesh bed leveling
G1 Y-3.0 F1000.0 ; go outside print area
G92 E0.0
G1 X60.0 E9.0 F1000.0 ; intro line
M73 Q0 S133
M73 P0 R130
G1 X100.0 E12.5 F1000.0 ; intro line
G92 E0.0
M221 S95
G21 ; set units to millimeters
G90 ; use absolute coordinates
M83 ; use relative distances for extrusion
M900 K45 ; Filament gcode
;BEFORE_LAYER_CHANGE
G92 E0.0
;0.2


G1 E-1.40000 F2100.00000
G1 Z0.200 F10800.000
;AFTER_LAYER_CHANGE
;0.2
G1 Z0.400
G1 X18.362 Y62.332
G1 Z0.200
G1 E1.40000 F2100.00000
M204 S1000
G1 F1200.000
G1 X19.529 Y60.684 E0.06330
G1 X39.332 Y37.686 E0.95157
G1 X40.184 Y36.875 E0.03689
G1 X41.607 Y35.770 E0.05649
G1 X75.473 Y12.039 E1.29658
G1 X75.925 Y11.851 E0.01538
G1 X93.158 Y6.743 E0.56354
G1 X93.687 Y6.661 E0.01680
G1 X95.238 Y6.659 E0.04862
G1 X136.026 Y9.834 E1.28275
G1 X142.462 Y10.647 E0.20340
G1 X148.899 Y11.878 E0.20547
G1 X155.128 Y13.479 E0.20166
G1 X161.230 Y15.460 E0.20117
G1 X167.289 Y17.855 E0.20427
G1 X202.312 Y33.627 E1.20432
G1 X204.095 Y34.930 E0.06924
G1 X205.392 Y36.725 E0.06944
G1 X221.141 Y71.701 E1.20269
G1 X223.516 Y77.701 E0.20231
G1 X225.522 Y83.875 E0.20356
G1 X227.137 Y90.164 E0.20357
G1 X228.359 Y96.582 E0.20487
G1 X229.169 Y103.005 E0.20297
G1 X232.336 Y143.607 E1.27693
G1 X232.313 Y145.582 E0.06192
G1 X231.744 Y147.424 E0.06044
G1 X231.486 Y147.928 E0.01775
G1 X230.471 Y149.316 E0.05391
G1 X210.676 Y172.305 E0.95121
G1 X209.857 Y173.090 E0.03558
G1 X208.364 Y174.251 E0.05928
G1 X174.754 Y197.821 E1.28712
G1 X174.301 Y198.069 E0.01621
G1 X156.831 Y203.260 E0.57141
G1 X156.297 Y203.340 E0.01692
G1 X154.613 Y203.336 E0.05280
G1 X114.004 Y200.169 E1.27714
G1 X107.545 Y199.354 E0.20411
G1 X101.161 Y198.136 E0.20380
G1 X94.876 Y196.522 E0.20345
G1 X88.701 Y194.516 E0.20356
G1 X82.703 Y192.143 E0.20225
G1 X47.781 Y176.418 E1.20086
G1 X45.925 Y175.089 E0.07157
G1 X44.582 Y173.220 E0.07218
G1 X28.859 Y138.299 E1.20078
G1 X26.484 Y132.299 E0.20231
G1 X24.478 Y126.125 E0.20356
G1 X22.863 Y119.836 E0.20357
G1 X21.640 Y113.414 E0.20499
G1 X20.831 Y106.995 E0.20285
G1 X17.664 Y66.385 E1.27717
G1 X17.693 Y64.380 E0.06287
G1 X18.343 Y62.389 E0.06569
G1 F8640.000
G1 X19.529 Y60.684 E-0.47939
G1 X21.933 Y57.893 E-0.85061
G1 E-0.07000 F2100.00000
G1 Z0.400 F10800.000
G1 X149.184 Y196.138
G1 Z0.200
G1 E1.40000 F2100.00000
G1 F1200.000
G1 X149.831 Y195.964 E0.02100
G1 X153.088 Y199.221 E0.14442
G1 X153.159 Y199.150 E0.00315
G1 X153.753 Y199.582 E0.02303
G1 X154.846 Y199.937 E0.03605
G1 X155.996 Y199.937 E0.03604
G1 X157.089 Y199.582 E0.03605
G1 X158.019 Y198.906 E0.03605
G1 X158.695 Y197.976 E0.03604
G1 X159.050 Y196.883 E0.03605
G1 X159.050 Y195.733 E0.03604
G1 X158.695 Y194.640 E0.03605
G1 X158.263 Y194.045 E0.02304
G1 X158.335 Y193.974 E0.00318
G1 X157.992 Y193.635 E0.01510
G1 X158.116 Y193.550 E0.00473
G1 X158.471 Y193.577 E0.01116
G1 X158.612 Y193.559 E0.00445
G1 X159.258 Y194.460 E0.03474
G1 X159.667 Y195.718 E0.04147
G1 X159.667 Y197.040 E0.04146
G1 X159.258 Y198.298 E0.04147
G1 X158.481 Y199.368 E0.04146
G1 X157.411 Y200.145 E0.04147
G1 X156.153 Y200.554 E0.04147
G1 X154.831 Y200.554 E0.04146
G1 X153.573 Y200.145 E0.04147
G1 X152.177 Y199.131 E0.05410
G1 X149.226 Y196.180 E0.13084
G1 X149.583 Y196.167 F10800.000
G1 X149.661 Y196.205
G1 F1200.000
G1 X152.366 Y198.910 E0.06454
G1 X152.600 Y199.109 E0.00519
G1 X153.067 Y199.509 E0.00512
G1 X153.482 Y199.618 E0.00357
G1 X152.933 Y199.333 F10800.000
G1 F1200.000
G1 X153.612 Y199.827 E0.01293
G1 X153.709 Y199.879 E0.00169
G1 X154.783 Y200.228 E0.01740
G1 X154.879 Y200.246 E0.00150
G1 X156.026 Y200.246 E0.01765
G1 X156.103 Y200.236 E0.00119
G1 X157.254 Y199.859 E0.01865
G1 X158.250 Y199.137 E0.01894
G1 X158.972 Y198.141 E0.01894
G1 X159.349 Y196.990 E0.01865
G1 X159.359 Y196.913 E0.00119
G1 X159.359 Y195.766 E0.01765
G1 X159.341 Y195.670 E0.00150
G1 X158.991 Y194.595 E0.01740
G1 X158.940 Y194.499 E0.00168
G1 X158.577 Y193.998 E0.00952
G1 X158.396 Y193.769 F10800.000
G1 F1200.000
G1 X158.501 Y193.809 E0.00068
G1 X158.622 Y193.952 E0.00114
G1 X158.734 Y194.373 E0.00354
G1 F8640.000
G1 X158.622 Y193.952 E-0.10044
G1 E-1.29956 F2100.00000
G1 Z0.400 F10800.000
G1 X148.268 Y193.922
G1 Z0.200
G1 E1.40000 F2100.00000
G1 F1200.000
G1 X145.529 Y194.625 E0.08867
G1 X145.200 Y193.954 E0.02343
G1 X146.098 Y193.257 E0.03566
G1 X147.242 Y192.249 E0.04780
G1 X147.517 Y192.918 E0.02270
G1 X147.634 Y193.139 E0.00783
G1 X147.778 Y193.344 E0.00785
G1 X148.229 Y193.876 E0.02188
G1 X148.422 Y194.291 F10800.000
G1 X148.730 Y193.884
G1 F1200.000
G1 X148.748 Y193.889 E0.00059
G1 F8640.000
G1 X148.748 Y193.889 E0.00000
G1 E-1.40000 F2100.00000
G1 Z0.400 F10800.000
G1 X145.190 Y194.791
G1 Z0.200
G1 E1.40000 F2100.00000
G1 F1200.000
G1 X142.600 Y195.285 E0.08269
G1 X142.992 Y195.116 E0.01339
G1 X143.797 Y194.705 E0.02835
G1 X144.575 Y194.245 E0.02835
G1 X144.836 Y194.068 E0.00988
G1 X145.164 Y194.737 E0.02337
G1 F8640.000
G1 X142.600 Y195.285 E-0.60543
G1 X142.992 Y195.116 E-0.09859
G1 X143.797 Y194.705 E-0.20875
G1 X144.575 Y194.245 E-0.20874
G1 X144.836 Y194.068 E-0.07276
G1 X145.095 Y194.596 E-0.13573
G1 E-0.07000 F2100.00000
G1 Z0.400 F10800.000
G1 X151.722 Y193.419
G1 Z0.200
G1 E1.40000 F2100.00000
G1 F1200.000
G1 X152.635 Y193.122 E0.03010
G1 X152.839 Y192.918 E0.00905
G1 X155.864 Y195.928 E0.13380
G1 X155.997 Y196.111 E0.00708
G1 X156.052 Y196.282 E0.00563
G1 X156.051 Y196.464 E0.00571
G1 X155.997 Y196.633 E0.00556
G1 X155.891 Y196.778 E0.00563
G1 X155.746 Y196.884 E0.00563
G1 X155.575 Y196.939 E0.00563
G1 X155.395 Y196.939 E0.00564
G1 X155.224 Y196.884 E0.00564
G1 X155.041 Y196.751 E0.00708
G1 X151.764 Y193.462 E0.14558
G1 F8640.000
G1 X152.635 Y193.122 E-0.21577
G1 X152.839 Y192.918 E-0.06663
G1 X155.864 Y195.928 E-0.98537
G1 X155.997 Y196.111 E-0.05212
G1 X156.010 Y196.153 E-0.01012
G1 E-0.07000 F2100.00000
G1 Z0.400 F10800.000
G1 X53.629 Y168.181
G1 Z0.200
G1 E1.40000 F2100.00000
G1 F1200.000
G1 X51.324 Y170.498 E0.10246
G1 X51.142 Y170.631 E0.00707
G1 X50.971 Y170.686 E0.00563
G1 X50.791 Y170.686 E0.00565
G1 X50.620 Y170.631 E0.00562
G1 X50.475 Y170.525 E0.00564
G1 X50.369 Y170.380 E0.00564
G1 X50.314 Y170.209 E0.00562
G1 X50.314 Y170.029 E0.00565
G1 X50.369 Y169.858 E0.00563
G1 X50.502 Y169.676 E0.00707
G1 X52.819 Y167.371 E0.10246
G1 X53.586 Y168.139 E0.03404
G1 X53.863 Y168.481 F10800.000
G1 F1200.000
G1 X54.162 Y168.181 E0.01327
G1 X52.819 Y166.838 E0.05957
G1 X52.519 Y167.137 E0.01327
G1 X48.887 Y163.269 E0.16639
G1 X44.892 Y158.440 E0.19651
G1 X41.208 Y153.369 E0.19651
G1 X37.850 Y148.078 E0.19651
G1 X34.830 Y142.585 E0.19651
G1 X32.162 Y136.915 E0.19650
G1 X29.855 Y131.087 E0.19651
G1 X27.918 Y125.127 E0.19650
G1 X26.360 Y119.057 E0.19651
G1 X25.185 Y112.900 E0.19651
G1 X24.399 Y106.682 E0.19651
G1 X24.006 Y100.428 E0.19651
G1 X24.006 Y94.160 E0.19651
G1 X24.399 Y87.905 E0.19650
G1 X25.185 Y81.687 E0.19651
G1 X25.480 Y80.141 E0.04937
G1 X25.578 Y79.805 E0.01095
G1 X25.876 Y78.977 E0.02760
G1 X26.225 Y78.169 E0.02760
G1 X26.625 Y77.385 E0.02760
G1 X27.073 Y76.627 E0.02760
G1 X27.568 Y75.899 E0.02760
G1 X27.965 Y75.387 E0.02030
G1 X28.689 Y74.544 E0.03485
G1 X29.312 Y73.920 E0.02764
G1 X29.973 Y73.338 E0.02760
G1 X30.668 Y72.799 E0.02760
G1 X31.396 Y72.304 E0.02760
G1 X32.154 Y71.856 E0.02760
G1 X32.939 Y71.456 E0.02760
G1 X33.747 Y71.106 E0.02760
G1 X34.575 Y70.808 E0.02760
G1 X35.420 Y70.563 E0.02760
G1 X36.279 Y70.371 E0.02760
G1 X37.149 Y70.233 E0.02760
G1 X38.025 Y70.150 E0.02760
G1 X38.672 Y70.130 E0.02030
G1 X39.784 Y70.150 E0.03485
G1 X40.662 Y70.233 E0.02765
G1 X41.531 Y70.371 E0.02760
G1 X42.390 Y70.563 E0.02760
G1 X43.236 Y70.808 E0.02760
G1 X44.064 Y71.106 E0.02760
G1 X44.872 Y71.456 E0.02760
G1 X45.656 Y71.856 E0.02761
G1 X46.414 Y72.304 E0.02760
G1 X47.142 Y72.799 E0.02760
G1 X47.838 Y73.338 E0.02760
G1 X48.498 Y73.920 E0.02760
G1 X49.120 Y74.543 E0.02760
G1 X49.703 Y75.203 E0.02760
G1 X50.242 Y75.899 E0.02760
G1 X50.606 Y76.434 E0.02030
G1 X51.185 Y77.383 E0.03485
G1 X51.585 Y78.169 E0.02765
G1 X51.934 Y78.977 E0.02760
G1 X52.233 Y79.805 E0.02760
G1 X52.478 Y80.651 E0.02760
G1 X52.670 Y81.510 E0.02760
G1 X52.808 Y82.379 E0.02760
G1 X52.891 Y83.256 E0.02760
G1 X52.914 Y83.993 E0.02313
G1 X53.002 Y84.690 E0.02202
G1 X54.182 Y90.876 E0.19744
G1 X55.748 Y96.975 E0.19744
G1 X57.694 Y102.964 E0.19744
G1 X60.012 Y108.818 E0.19744
G1 X62.693 Y114.516 E0.19744
G1 X65.727 Y120.034 E0.19744
G1 X69.101 Y125.351 E0.19744
G1 X72.802 Y130.445 E0.19744
G1 X76.816 Y135.297 E0.19744
G1 X81.112 Y139.873 E0.19681
G1 X85.703 Y144.184 E0.19744
G1 X90.555 Y148.198 E0.19744
G1 X95.649 Y151.899 E0.19744
G1 X100.966 Y155.273 E0.19744
G1 X106.484 Y158.307 E0.19744
G1 X112.182 Y160.988 E0.19744
G1 X118.036 Y163.306 E0.19744
G1 X124.025 Y165.252 E0.19744
G1 X130.124 Y166.818 E0.19744
G1 X136.310 Y167.998 E0.19744
G1 X137.006 Y168.086 E0.02199
G1 X137.744 Y168.109 E0.02317
G1 X138.621 Y168.192 E0.02760
G1 X139.490 Y168.330 E0.02761
G1 X140.349 Y168.522 E0.02760
G1 X141.195 Y168.767 E0.02760
G1 X142.024 Y169.066 E0.02765
G1 X143.039 Y169.521 E0.03485
G1 X143.615 Y169.815 E0.02030
G1 X144.373 Y170.263 E0.02760
G1 X145.101 Y170.758 E0.02760
G1 X145.797 Y171.297 E0.02760
G1 X146.457 Y171.880 E0.02760
G1 X147.080 Y172.502 E0.02760
G1 X147.662 Y173.162 E0.02760
G1 X148.201 Y173.858 E0.02760
G1 X148.696 Y174.586 E0.02760
G1 X149.144 Y175.344 E0.02760
G1 X149.544 Y176.128 E0.02761
G1 X149.894 Y176.936 E0.02760
G1 X150.192 Y177.766 E0.02765
G1 X150.488 Y178.837 E0.03485
G1 X150.629 Y179.469 E0.02030
G1 X150.767 Y180.338 E0.02760
G1 X150.850 Y181.215 E0.02760
G1 X150.878 Y182.095 E0.02760
G1 X150.850 Y182.975 E0.02760
G1 X150.767 Y183.851 E0.02760
G1 X150.629 Y184.721 E0.02760
M73 Q0 S132
G1 X150.437 Y185.580 E0.02760
G1 X150.192 Y186.425 E0.02760
G1 X149.894 Y187.253 E0.02760
G1 X149.544 Y188.061 E0.02760
G1 X149.144 Y188.846 E0.02760
G1 X148.696 Y189.604 E0.02760
G1 X148.201 Y190.332 E0.02760
G1 X147.662 Y191.027 E0.02760
G1 X147.080 Y191.688 E0.02760
G1 X146.457 Y192.310 E0.02760
G1 X145.796 Y192.893 E0.02765
G1 X144.909 Y193.563 E0.03485
G1 X144.373 Y193.927 E0.02030
G1 X143.615 Y194.375 E0.02760
G1 X142.831 Y194.775 E0.02760
G1 X142.023 Y195.124 E0.02760
G1 X141.195 Y195.422 E0.02760
G1 X140.859 Y195.520 E0.01095
G1 X139.313 Y195.815 E0.04937
G1 X133.095 Y196.600 E0.19651
M73 P0 R129
G1 X126.840 Y196.994 E0.19651
G1 X120.572 Y196.994 E0.19651
G1 X114.318 Y196.600 E0.19651
G1 X108.100 Y195.815 E0.19651
G1 X101.943 Y194.640 E0.19651
G1 X95.873 Y193.082 E0.19651
G1 X89.913 Y191.145 E0.19650
G1 X84.085 Y188.838 E0.19651
G1 X78.415 Y186.170 E0.19650
G1 X72.922 Y183.150 E0.19651
G1 X67.631 Y179.792 E0.19651
G1 X62.560 Y176.108 E0.19651
G1 X57.731 Y172.113 E0.19651
G1 X53.907 Y168.522 E0.16451
G1 X53.574 Y168.204 F10800.000
G1 F8640.000
G1 X54.162 Y168.181 E-0.09826
G1 X52.819 Y166.838 E-0.43872
G1 X52.519 Y167.137 E-0.09771
G1 X50.458 Y164.942 E-0.69532
G1 E-0.07000 F2100.00000
G1 Z0.400 F10800.000
G1 X25.715 Y78.399
G1 Z0.200
G1 E1.40000 F2100.00000
G1 F1200.000
G1 X26.209 Y75.810 E0.08266
G1 X26.932 Y76.164 E0.02525
G1 X26.755 Y76.425 E0.00988
G1 X26.295 Y77.203 E0.02835
G1 X25.884 Y78.008 E0.02835
G1 X25.739 Y78.344 E0.01148
G1 F8640.000
G1 X26.209 Y75.810 E-0.59522
G1 X26.932 Y76.164 E-0.18594
G1 X26.755 Y76.425 E-0.07276
G1 X26.295 Y77.203 E-0.20875
G1 X25.884 Y78.008 E-0.20875
G1 X25.783 Y78.241 E-0.05859
G1 E-0.07000 F2100.00000
G1 Z0.400 F10800.000
G1 X26.997 Y75.776
G1 Z0.200
G1 E1.40000 F2100.00000
G1 F1200.000
G1 X26.375 Y75.471 E0.02173
G1 X27.078 Y72.732 E0.08867
G1 X27.656 Y73.222 E0.02376
G1 X27.861 Y73.366 E0.00785
G1 X28.082 Y73.483 E0.00783
G1 X28.751 Y73.758 E0.02268
G1 X27.743 Y74.902 E0.04780
G1 X27.049 Y75.796 E0.03548
G1 X26.791 Y76.119 F10800.000
G1 F8640.000
G1 X26.375 Y75.471 E-0.17284
G1 X27.078 Y72.732 E-0.65301
G1 X27.656 Y73.222 E-0.17499
G1 X27.861 Y73.366 E-0.05783
G1 X28.082 Y73.483 E-0.05770
G1 X28.751 Y73.758 E-0.16705
G1 X28.618 Y73.909 E-0.04658
G1 E-0.07000 F2100.00000
G1 Z0.400 F10800.000
G1 X27.116 Y72.270
G1 Z0.200
G1 E1.40000 F2100.00000
G1 F1200.000
G1 X27.102 Y72.258 E0.00059
G1 F8640.000
G1 X27.102 Y72.258 E0.00000
G1 E-1.40000 F2100.00000
G1 Z0.400 F10800.000
G1 X27.581 Y69.278
G1 Z0.200
G1 E1.40000 F2100.00000
G1 F1200.000
G1 X24.249 Y65.959 E0.14746
G1 X24.117 Y65.776 E0.00708
G1 X24.061 Y65.605 E0.00563
G1 X24.061 Y65.425 E0.00566
G1 X24.117 Y65.254 E0.00562
G1 X24.222 Y65.109 E0.00565
G1 X24.367 Y65.004 E0.00560
G1 X24.539 Y64.948 E0.00566
G1 X24.718 Y64.948 E0.00563
G1 X24.889 Y65.003 E0.00563
G1 X25.072 Y65.136 E0.00708
G1 X28.082 Y68.161 E0.13380
G1 X27.878 Y68.365 E0.00905
G1 X27.599 Y69.221 E0.02822
G1 F8640.000
G1 X24.249 Y65.959 E-1.07975
G1 X24.117 Y65.776 E-0.05214
G1 X24.061 Y65.605 E-0.04143
G1 X24.061 Y65.425 E-0.04166
G1 X24.117 Y65.254 E-0.04142
G1 X24.222 Y65.109 E-0.04161
G1 X24.335 Y65.027 E-0.03199
G1 E-0.07000 F2100.00000
G1 Z0.400 F10800.000
G1 X28.408 Y67.952
G1 Z0.200
G1 E1.40000 F2100.00000
G1 F1200.000
G1 X28.616 Y68.160 E0.00922
G1 X28.208 Y68.568 E0.01809
G1 X27.918 Y69.461 E0.02944
G1 X27.413 Y71.434 E0.06387
G1 X27.392 Y71.687 E0.00794
G1 X27.407 Y71.906 E0.00690
G1 X27.504 Y72.256 E0.01137
G1 X27.591 Y72.433 E0.00619
G1 X27.751 Y72.660 E0.00872
G1 X27.953 Y72.856 E0.00882
G1 X28.189 Y73.010 E0.00882
G1 X28.449 Y73.117 E0.00882
G1 X28.721 Y73.173 E0.00871
G1 X28.915 Y73.181 E0.00609
G1 X29.188 Y73.151 E0.00861
G1 X29.415 Y73.082 E0.00743
G1 X29.457 Y73.140 E0.00225
G1 X30.390 Y72.416 E0.03703
G1 X31.143 Y71.904 E0.02854
G1 X31.925 Y71.442 E0.02849
G1 X32.962 Y70.931 E0.03624
G1 X33.572 Y70.666 E0.02086
G1 X34.429 Y70.358 E0.02853
G1 X35.302 Y70.104 E0.02853
G1 X36.191 Y69.906 E0.02854
G1 X37.090 Y69.763 E0.02853
G1 X37.996 Y69.678 E0.02853
G1 X38.905 Y69.649 E0.02854
G1 X39.815 Y69.678 E0.02853
G1 X40.721 Y69.763 E0.02853
G1 X41.620 Y69.906 E0.02854
G1 X42.508 Y70.104 E0.02853
G1 X43.382 Y70.358 E0.02854
G1 X44.238 Y70.666 E0.02853
G1 X45.072 Y71.027 E0.02849
G1 X46.095 Y71.566 E0.03624
G1 X46.668 Y71.904 E0.02086
G1 X47.420 Y72.416 E0.02853
G1 X48.139 Y72.974 E0.02854
G1 X48.822 Y73.575 E0.02853
G1 X49.292 Y74.046 E0.02086
G1 X50.068 Y74.903 E0.03624
G1 X50.625 Y75.621 E0.02849
G1 X51.137 Y76.373 E0.02853
G1 X51.600 Y77.157 E0.02853
G1 X52.013 Y77.968 E0.02854
G1 X52.374 Y78.803 E0.02853
G1 X52.683 Y79.659 E0.02853
G1 X52.937 Y80.533 E0.02854
G1 X53.135 Y81.421 E0.02853
G1 X53.278 Y82.320 E0.02853
G1 X53.363 Y83.226 E0.02853
G1 X53.386 Y83.957 E0.02292
G1 X53.469 Y84.616 E0.02083
G1 X54.644 Y90.772 E0.19651
G1 X56.202 Y96.843 E0.19651
G1 X58.139 Y102.803 E0.19650
G1 X60.446 Y108.630 E0.19651
G1 X63.115 Y114.301 E0.19651
G1 X66.134 Y119.793 E0.19651
G1 X69.492 Y125.085 E0.19651
G1 X73.176 Y130.155 E0.19651
G1 X77.171 Y134.984 E0.19651
G1 X81.454 Y139.546 E0.19619
G1 X86.016 Y143.829 E0.19619
G1 X90.845 Y147.824 E0.19651
G1 X95.915 Y151.508 E0.19651
G1 X101.207 Y154.866 E0.19651
G1 X106.699 Y157.885 E0.19651
G1 X112.370 Y160.554 E0.19650
G1 X118.197 Y162.861 E0.19651
G1 X124.157 Y164.798 E0.19650
G1 X130.228 Y166.356 E0.19651
G1 X136.384 Y167.531 E0.19651
