; generated by PrusaSlicer 2.2.0+linux-x64 on 2020-04-25 at 05:40:39 UTC

; 

; external perimeters extrusion width = 0.60mm
; perimeters extrusion width = 0.50mm
; infill extrusion width = 0.50mm
; solid infill extrusion width = 0.50mm
; top infill extrusion width = 0.45mm
; first layer extrusion width = 0.42mm

M73 P0 R61
M73 Q0 S62
M201 X1000 Y1000 Z1000 E5000 ; sets maximum accelerations, mm/sec^2
M203 X200 Y200 Z12 E120 ; sets maximum feedrates, mm/sec
M204 P1250 R1250 T1250 ; sets acceleration (P, T) and retract acceleration (R), mm/sec^2
M205 X8.00 Y8.00 Z0.40 E4.50 ; sets the jerk limits, mm/sec
M205 S0 T0 ; sets the minimum extruding and travel feed rate, mm/sec
M107
M862.3 P "MK3" ; printer model check
M862.1 P0.4 ; nozzle diameter check
M115 U3.8.1 ; tell printer latest fw version
G90 ; use absolute coordinates
M83 ; extruder relative mode
M104 S240 ; set extruder temp
M140 S85 ; set bed temp
M190 S85 ; wait for bed temp
M109 S240 ; wait for extruder temp
G28 W ; home all without mesh bed level
G80 ; mesh bed leveling
G1 Y-3.0 F1000.0 ; go outside print area
G92 E0.0
G1 X60.0 E9.0 F1000.0 ; intro line
M73 Q0 S62
M73 P0 R61
G1 X100.0 E12.5 F1000.0 ; intro line
G92 E0.0
M221 S95
G21 ; set units to millimeters
G90 ; use absolute coordinates
M83 ; use relative distances for extrusion
M900 K45 ; Filament gcode
;BEFORE_LAYER_CHANGE
G92 E0.0
;0.2


G1 E-1.40000 F2100.00000
G1 Z0.200 F10800.000
;AFTER_LAYER_CHANGE
;0.2
G1 Z0.400
G1 X147.278 Y192.090
G1 Z0.200
G1 E1.40000 F2100.00000
M204 S1000
G1 F1200.000
G1 X147.514 Y192.783 E0.02295
G1 X147.677 Y193.116 E0.01163
G1 X147.815 Y193.314 E0.00755
G1 X148.356 Y193.949 E0.02614
G1 X145.282 Y194.738 E0.09949
G1 X144.966 Y194.038 E0.02409
G1 X145.351 Y193.776 E0.01460
G1 X146.068 Y193.220 E0.02844
G1 X146.750 Y192.618 E0.02852
G1 X147.236 Y192.133 E0.02154
G1 X147.635 Y191.909 F10800.000
G1 F8640.000
G1 X147.514 Y192.783 E-0.16336
G1 X147.677 Y193.116 E-0.08565
G1 X147.815 Y193.314 E-0.05563
G1 X148.356 Y193.949 E-0.19253
G1 X145.282 Y194.738 E-0.73268
G1 X145.104 Y194.343 E-0.10015
G1 E-0.07000 F2100.00000
G1 Z0.400 F10800.000
G1 X144.650 Y194.255
G1 Z0.200
G1 E1.40000 F2100.00000
G1 F1200.000
G1 X144.895 Y194.797 E0.01868
G1 X143.027 Y195.154 E0.05965
G1 X143.821 Y194.749 E0.02796
G1 X144.600 Y194.288 E0.02839
G1 F8640.000
G1 X144.895 Y194.797 E-0.13585
G1 X143.027 Y195.154 E-0.43928
G1 X143.821 Y194.749 E-0.20594
G1 X144.600 Y194.288 E-0.20906
G1 E-0.40987 F2100.00000
G1 Z0.400 F10800.000
G1 X151.647 Y193.495
G1 Z0.200
G1 E1.40000 F2100.00000
G1 F1200.000
G1 X152.746 Y193.139 E0.03622
G1 X152.830 Y193.054 E0.00374
G1 X155.854 Y196.066 E0.13380
G1 X155.987 Y196.249 E0.00709
G1 X156.042 Y196.420 E0.00563
G1 X156.042 Y196.599 E0.00564
G1 X155.987 Y196.770 E0.00563
G1 X155.881 Y196.916 E0.00564
G1 X155.736 Y197.021 E0.00563
G1 X155.565 Y197.077 E0.00564
G1 X155.385 Y197.077 E0.00563
G1 X155.214 Y197.021 E0.00563
G1 X155.031 Y196.888 E0.00709
G1 X151.689 Y193.537 E0.14838
G1 F8640.000
G1 X152.746 Y193.139 E-0.26077
G1 X152.830 Y193.054 E-0.02752
G1 X155.854 Y196.066 E-0.98532
G1 X155.987 Y196.249 E-0.05220
G1 X155.992 Y196.266 E-0.00419
G1 E-0.07000 F2100.00000
G1 Z0.400 F10800.000
G1 X53.638 Y168.190
G1 Z0.200
G1 E1.40000 F2100.00000
G1 F1200.000
G1 X51.332 Y170.505 E0.10246
G1 X51.149 Y170.638 E0.00708
G1 X50.978 Y170.693 E0.00563
G1 X50.798 Y170.693 E0.00564
G1 X50.630 Y170.638 E0.00556
G1 X50.469 Y170.520 E0.00626
G1 X50.362 Y170.373 E0.00571
G1 X50.307 Y170.202 E0.00563
G1 X50.307 Y170.022 E0.00564
G1 X50.362 Y169.851 E0.00563
G1 X50.495 Y169.668 E0.00708
G1 X52.810 Y167.362 E0.10246
G1 X53.596 Y168.147 E0.03482
G1 X53.838 Y168.523 F10800.000
G1 F1200.000
G1 X54.171 Y168.189 E0.01478
G1 X52.811 Y166.829 E0.06030
G1 X52.477 Y167.162 E0.01478
G1 X48.851 Y163.300 E0.16609
G1 X44.854 Y158.469 E0.19660
G1 X41.168 Y153.396 E0.19660
G1 X37.808 Y148.102 E0.19660
G1 X34.788 Y142.607 E0.19660
G1 X32.118 Y136.934 E0.19660
G1 X29.810 Y131.104 E0.19660
G1 X27.872 Y125.140 E0.19660
G1 X26.313 Y119.067 E0.19660
G1 X25.138 Y112.908 E0.19660
G1 X24.352 Y106.687 E0.19660
G1 X23.958 Y100.429 E0.19660
G1 X23.958 Y94.159 E0.19660
G1 X24.352 Y87.901 E0.19660
G1 X25.138 Y81.680 E0.19660
G1 X25.433 Y80.130 E0.04948
G1 X25.530 Y79.790 E0.01107
G1 X25.829 Y78.959 E0.02771
G1 X26.180 Y78.148 E0.02770
G1 X26.581 Y77.361 E0.02770
G1 X27.031 Y76.600 E0.02771
G1 X27.529 Y75.870 E0.02770
G1 X28.071 Y75.173 E0.02769
G1 X28.655 Y74.510 E0.02769
G1 X29.278 Y73.884 E0.02770
G1 X29.941 Y73.300 E0.02771
G1 X30.640 Y72.760 E0.02770
G1 X31.371 Y72.263 E0.02769
G1 X32.131 Y71.814 E0.02770
G1 X32.918 Y71.413 E0.02770
G1 X33.691 Y71.078 E0.02641
G1 X34.560 Y70.763 E0.02897
G1 X35.408 Y70.516 E0.02771
G1 X36.270 Y70.323 E0.02770
G1 X37.143 Y70.185 E0.02770
G1 X38.022 Y70.102 E0.02770
G1 X38.864 Y70.076 E0.02641
G1 X39.788 Y70.102 E0.02897
G1 X40.668 Y70.185 E0.02771
G1 X41.540 Y70.323 E0.02770
G1 X42.402 Y70.516 E0.02770
G1 X43.250 Y70.763 E0.02770
G1 X44.081 Y71.062 E0.02770
G1 X44.892 Y71.413 E0.02770
G1 X45.679 Y71.814 E0.02770
G1 X46.440 Y72.263 E0.02770
G1 X47.170 Y72.760 E0.02770
G1 X47.868 Y73.301 E0.02770
G1 X48.500 Y73.858 E0.02641
G1 X49.155 Y74.510 E0.02897
G1 X49.740 Y75.173 E0.02771
G1 X50.281 Y75.871 E0.02769
G1 X50.778 Y76.601 E0.02770
G1 X51.227 Y77.362 E0.02770
G1 X51.628 Y78.149 E0.02770
G1 X51.979 Y78.959 E0.02770
G1 X52.278 Y79.790 E0.02770
G1 X52.525 Y80.639 E0.02770
G1 X52.717 Y81.501 E0.02770
G1 X52.856 Y82.373 E0.02770
G1 X52.939 Y83.255 E0.02776
G1 X52.945 Y83.855 E0.01880
G1 X53.050 Y84.683 E0.02617
G1 X54.229 Y90.865 E0.19734
G1 X55.794 Y96.961 E0.19734
G1 X57.739 Y102.947 E0.19734
G1 X60.056 Y108.799 E0.19734
G1 X62.736 Y114.494 E0.19734
G1 X65.768 Y120.010 E0.19734
G1 X69.141 Y125.324 E0.19734
G1 X72.840 Y130.416 E0.19735
G1 X76.852 Y135.265 E0.19734
G1 X81.147 Y139.840 E0.19673
G1 X85.735 Y144.148 E0.19733
G1 X90.584 Y148.160 E0.19734
G1 X95.676 Y151.859 E0.19735
G1 X100.990 Y155.232 E0.19734
G1 X106.506 Y158.264 E0.19734
G1 X112.201 Y160.944 E0.19735
G1 X118.053 Y163.261 E0.19734
G1 X124.039 Y165.206 E0.19734
G1 X130.135 Y166.771 E0.19734
G1 X136.317 Y167.950 E0.19734
G1 X137.145 Y168.055 E0.02617
G1 X137.745 Y168.061 E0.01880
G1 X138.627 Y168.144 E0.02776
G1 X139.499 Y168.283 E0.02770
G1 X140.361 Y168.475 E0.02770
G1 X141.210 Y168.722 E0.02770
G1 X142.041 Y169.021 E0.02771
G1 X142.888 Y169.390 E0.02897
G1 X143.638 Y169.773 E0.02641
G1 X144.399 Y170.222 E0.02770
G1 X145.129 Y170.719 E0.02770
G1 X145.827 Y171.260 E0.02769
G1 X146.490 Y171.845 E0.02770
G1 X147.115 Y172.469 E0.02770
G1 X147.699 Y173.132 E0.02770
G1 X148.240 Y173.830 E0.02770
G1 X148.737 Y174.560 E0.02770
G1 X149.186 Y175.321 E0.02770
G1 X149.587 Y176.108 E0.02770
G1 X149.938 Y176.919 E0.02770
G1 X150.237 Y177.750 E0.02770
G1 X150.484 Y178.598 E0.02770
G1 X150.580 Y179.029 E0.01385
G1 X150.677 Y179.460 E0.01385
G1 X150.815 Y180.332 E0.02770
G1 X150.898 Y181.212 E0.02770
G1 X150.926 Y182.095 E0.02769
G1 X150.898 Y182.978 E0.02770
G1 X150.815 Y183.857 E0.02770
G1 X150.677 Y184.730 E0.02770
G1 X150.484 Y185.592 E0.02770
G1 X150.237 Y186.440 E0.02770
G1 X149.938 Y187.271 E0.02770
G1 X149.587 Y188.082 E0.02770
G1 X149.186 Y188.869 E0.02770
G1 X148.737 Y189.629 E0.02770
G1 X148.240 Y190.360 E0.02769
G1 X147.700 Y191.059 E0.02770
G1 X147.116 Y191.722 E0.02771
G1 X146.490 Y192.345 E0.02770
G1 X145.827 Y192.929 E0.02769
G1 X145.130 Y193.471 E0.02769
G1 X144.400 Y193.969 E0.02770
G1 X143.639 Y194.419 E0.02771
G1 X142.852 Y194.820 E0.02770
G1 X142.041 Y195.171 E0.02770
G1 X141.210 Y195.470 E0.02771
G1 X140.870 Y195.567 E0.01107
G1 X139.320 Y195.862 E0.04948
G1 X133.099 Y196.648 E0.19660
G1 X126.841 Y197.042 E0.19660
G1 X120.571 Y197.042 E0.19660
G1 X114.313 Y196.648 E0.19660
G1 X108.092 Y195.862 E0.19660
G1 X101.933 Y194.687 E0.19660
G1 X95.860 Y193.128 E0.19660
G1 X89.896 Y191.190 E0.19660
G1 X84.066 Y188.882 E0.19660
G1 X78.393 Y186.212 E0.19660
G1 X72.898 Y183.192 E0.19660
G1 X67.604 Y179.832 E0.19660
G1 X62.531 Y176.146 E0.19660
G1 X57.700 Y172.149 E0.19660
G1 X53.882 Y168.564 E0.16421
G1 X53.549 Y168.247 F10800.000
G1 F8640.000
G1 X54.171 Y168.189 E-0.10928
G1 X52.811 Y166.829 E-0.44404
G1 X52.477 Y167.162 E-0.10881
G1 X50.497 Y165.053 E-0.66787
G1 E-0.07000 F2100.00000
G1 Z0.400 F10800.000
G1 X25.846 Y77.974
G1 Z0.200
G1 E1.40000 F2100.00000
G1 F1200.000
G1 X26.203 Y76.105 E0.05965
G1 X26.745 Y76.350 E0.01868
G1 X26.251 Y77.179 E0.03027
G1 X25.873 Y77.920 E0.02609
G1 F8640.000
G1 X26.203 Y76.105 E-0.42601
G1 X26.745 Y76.350 E-0.13754
G1 X26.251 Y77.179 E-0.22289
G1 X25.873 Y77.920 E-0.19210
G1 E-0.42146 F2100.00000
G1 Z0.400 F10800.000
G1 X27.051 Y72.644
G1 Z0.200
G1 E1.40000 F2100.00000
G1 F1200.000
G1 X27.686 Y73.185 E0.02614
G1 X27.884 Y73.323 E0.00755
G1 X28.217 Y73.486 E0.01163
G1 X28.910 Y73.722 E0.02295
G1 X28.380 Y74.252 E0.02350
G1 X27.780 Y74.932 E0.02844
G1 X27.224 Y75.649 E0.02844
G1 X26.962 Y76.034 E0.01460
G1 X26.262 Y75.718 E0.02409
G1 X27.036 Y72.703 E0.09761
G1 X27.236 Y72.289 F10800.000
G1 F8640.000
G1 X27.686 Y73.185 E-0.18687
G1 X27.884 Y73.323 E-0.05563
G1 X28.217 Y73.486 E-0.08565
G1 X28.910 Y73.722 E-0.16898
G1 X28.380 Y74.252 E-0.17303
G1 X27.780 Y74.932 E-0.20945
G1 X27.224 Y75.649 E-0.20945
G1 X26.962 Y76.034 E-0.10754
G1 X26.436 Y75.796 E-0.13339
G1 E-0.07000 F2100.00000
G1 Z0.400 F10800.000
G1 X27.505 Y69.353
G1 Z0.200
G1 E1.40000 F2100.00000
G1 F1200.000
G1 X24.111 Y65.969 E0.15027
G1 X23.978 Y65.786 E0.00708
G1 X23.923 Y65.615 E0.00562
G1 X23.923 Y65.435 E0.00566
G1 X23.978 Y65.264 E0.00561
G1 X24.084 Y65.120 E0.00561
G1 X24.230 Y65.013 E0.00568
G1 X24.401 Y64.958 E0.00562
G1 X24.580 Y64.958 E0.00563
G1 X24.751 Y65.013 E0.00564
G1 X24.934 Y65.146 E0.00709
G1 X27.946 Y68.170 E0.13380
G1 X27.861 Y68.254 E0.00374
G1 X27.523 Y69.296 E0.03434
G1 F8640.000
G1 X24.111 Y65.969 E-1.10031
G1 X23.978 Y65.786 E-0.05215
G1 X23.923 Y65.615 E-0.04141
G1 X23.923 Y65.435 E-0.04172
G1 X23.978 Y65.264 E-0.04133
G1 X24.084 Y65.120 E-0.04133
G1 X24.125 Y65.090 E-0.01175
G1 E-0.07000 F2100.00000
G1 Z0.400 F10800.000
G1 X28.333 Y68.024
G1 Z0.200
G1 E1.40000 F2100.00000
G1 F1200.000
G1 X28.479 Y68.170 E0.00648
G1 X28.192 Y68.457 E0.01272
G1 X27.870 Y69.447 E0.03265
G1 X27.364 Y71.430 E0.06415
G1 X27.346 Y71.808 E0.01188
G1 X27.396 Y72.094 E0.00912
G1 X27.462 Y72.284 E0.00630
G1 X27.597 Y72.538 E0.00901
G1 X27.779 Y72.764 E0.00911
G1 X27.999 Y72.949 E0.00901
G1 X28.346 Y73.132 E0.01229
G1 X28.622 Y73.209 E0.00900
G1 X28.912 Y73.231 E0.00912
G1 X29.198 Y73.200 E0.00901
G1 X29.447 Y73.121 E0.00820
G1 X29.488 Y73.176 E0.00215
G1 X30.418 Y72.455 E0.03691
G1 X31.169 Y71.945 E0.02844
G1 X31.949 Y71.483 E0.02844
G1 X32.758 Y71.071 E0.02844
G1 X33.590 Y70.711 E0.02844
G1 X34.443 Y70.404 E0.02844
G1 X35.314 Y70.151 E0.02844
G1 X36.200 Y69.953 E0.02844
G1 X37.096 Y69.811 E0.02844
G1 X37.999 Y69.726 E0.02844
G1 X38.905 Y69.697 E0.02844
G1 X39.812 Y69.726 E0.02844
G1 X40.715 Y69.811 E0.02844
G1 X41.611 Y69.953 E0.02844
G1 X42.496 Y70.151 E0.02844
G1 X43.367 Y70.404 E0.02844
G1 X44.220 Y70.711 E0.02844
G1 X45.053 Y71.071 E0.02844
G1 X45.861 Y71.483 E0.02844
G1 X46.251 Y71.714 E0.01422
G1 X46.642 Y71.945 E0.01422
G1 X47.392 Y72.455 E0.02845
G1 X48.109 Y73.011 E0.02843
G1 X48.789 Y73.610 E0.02844
G1 X49.430 Y74.252 E0.02844
G1 X50.030 Y74.932 E0.02844
G1 X50.586 Y75.649 E0.02844
G1 X51.096 Y76.399 E0.02844
G1 X51.558 Y77.180 E0.02844
G1 X51.970 Y77.988 E0.02844
G1 X52.330 Y78.820 E0.02844
G1 X52.637 Y79.674 E0.02844
G1 X52.890 Y80.545 E0.02844
G1 X53.088 Y81.430 E0.02844
G1 X53.230 Y82.326 E0.02844
G1 X53.315 Y83.229 E0.02844
G1 X53.338 Y83.961 E0.02295
G1 X53.422 Y84.624 E0.02095
G1 X54.597 Y90.783 E0.19660
G1 X56.156 Y96.856 E0.19660
G1 X58.094 Y102.819 E0.19660
G1 X60.402 Y108.649 E0.19660
G1 X63.072 Y114.323 E0.19660
G1 X66.093 Y119.818 E0.19660
G1 X69.452 Y125.112 E0.19660
G1 X73.138 Y130.185 E0.19660
G1 X77.135 Y135.016 E0.19660
G1 X81.420 Y139.580 E0.19629
G1 X85.984 Y143.865 E0.19629
G1 X90.815 Y147.862 E0.19660
G1 X95.888 Y151.548 E0.19660
G1 X101.182 Y154.907 E0.19660
G1 X106.677 Y157.928 E0.19660
G1 X112.351 Y160.598 E0.19660
G1 X118.181 Y162.906 E0.19660
G1 X124.144 Y164.844 E0.19660
G1 X130.217 Y166.403 E0.19660
G1 X136.376 Y167.578 E0.19660
G1 X137.039 Y167.662 E0.02095
G1 X137.771 Y167.685 E0.02295
G1 X138.674 Y167.770 E0.02844
G1 X139.570 Y167.912 E0.02844
G1 X140.455 Y168.110 E0.02844
G1 X141.326 Y168.363 E0.02844
G1 X142.180 Y168.670 E0.02844
G1 X143.012 Y169.030 E0.02844
G1 X143.820 Y169.442 E0.02844
G1 X144.601 Y169.904 E0.02844
G1 X145.351 Y170.414 E0.02844
G1 X146.068 Y170.970 E0.02844
G1 X146.748 Y171.570 E0.02844
G1 X147.390 Y172.211 E0.02844
G1 X147.989 Y172.891 E0.02844
G1 X148.545 Y173.608 E0.02844
G1 X149.055 Y174.358 E0.02844
G1 X149.517 Y175.139 E0.02844
G1 X149.929 Y175.947 E0.02844
G1 X150.109 Y176.363 E0.01422
G1 X150.289 Y176.780 E0.01422
G1 X150.596 Y177.633 E0.02844
G1 X150.849 Y178.504 E0.02844
G1 X151.047 Y179.389 E0.02844
G1 X151.189 Y180.285 E0.02844
G1 X151.274 Y181.188 E0.02844
G1 X151.303 Y182.095 E0.02844
G1 X151.274 Y183.001 E0.02844
G1 X151.189 Y183.904 E0.02844
G1 X151.047 Y184.800 E0.02844
G1 X150.849 Y185.686 E0.02844
G1 X150.596 Y186.557 E0.02844
G1 X150.289 Y187.410 E0.02844
G1 X150.109 Y187.826 E0.01422
G1 X149.929 Y188.242 E0.01422
G1 X149.517 Y189.051 E0.02844
G1 X149.055 Y189.831 E0.02844
G1 X148.545 Y190.582 E0.02844
G1 X147.824 Y191.512 E0.03690
G1 X147.879 Y191.552 E0.00215
G1 X147.800 Y191.802 E0.00821
G1 X147.769 Y192.088 E0.00901
G1 X147.791 Y192.378 E0.00912
G1 X147.868 Y192.654 E0.00900
G1 X148.051 Y193.001 E0.01229
G1 X148.236 Y193.221 E0.00901
G1 X148.462 Y193.403 E0.00911
G1 X148.716 Y193.538 E0.00901
G1 X148.906 Y193.604 E0.00630
G1 X149.192 Y193.654 E0.00912
G1 X149.570 Y193.636 E0.01188
G1 X151.553 Y193.130 E0.06415
G1 X152.543 Y192.808 E0.03265
G1 X152.830 Y192.521 E0.01272
G1 X152.976 Y192.667 E0.00648
G1 X157.516 Y191.190 E0.14968
G1 X163.346 Y188.882 E0.19660
G1 X169.020 Y186.212 E0.19660
G1 X174.514 Y183.192 E0.19660
G1 X179.808 Y179.832 E0.19660
G1 X181.063 Y178.920 E0.04863
G1 X181.438 Y178.521 E0.01718
G1 X181.911 Y177.949 E0.02327
G1 X182.347 Y177.349 E0.02327
G1 X182.745 Y176.722 E0.02327
G1 X183.102 Y176.072 E0.02326
G1 X183.418 Y175.401 E0.02327
G1 X183.692 Y174.710 E0.02327
G1 X183.930 Y173.971 E0.02436
G1 X184.105 Y173.286 E0.02216
G1 X184.244 Y172.557 E0.02326
G1 X184.337 Y171.821 E0.02327
G1 X184.384 Y171.081 E0.02324
G1 X184.392 Y169.909 E0.03677
G1 X184.440 Y169.144 E0.02403
G1 X184.536 Y168.384 E0.02401
G1 X184.680 Y167.632 E0.02401
G1 X184.870 Y166.890 E0.02401
G1 X184.988 Y166.526 E0.01200
G1 X185.107 Y166.162 E0.01200
G1 X185.389 Y165.450 E0.02401
G1 X185.715 Y164.757 E0.02401
G1 X185.899 Y164.422 E0.01200
G1 X186.084 Y164.086 E0.01200
G1 X186.494 Y163.440 E0.02401
G1 X186.944 Y162.820 E0.02402
G1 X187.198 Y162.513 E0.01251
G1 X187.432 Y162.230 E0.01149
G1 X187.961 Y161.668 E0.02421
G1 X205.376 Y144.254 E0.77220
G1 X205.641 Y144.519 E0.01173
G1 X188.219 Y161.944 E0.77259
G1 X187.715 Y162.480 E0.02307
G1 X187.242 Y163.052 E0.02327
G1 X186.806 Y163.652 E0.02327
G1 X186.408 Y164.278 E0.02326
G1 X186.051 Y164.929 E0.02327
G1 X185.735 Y165.600 E0.02328
G1 X185.451 Y166.323 E0.02436
G1 X185.232 Y166.996 E0.02216
G1 X185.048 Y167.714 E0.02326
G1 X184.909 Y168.443 E0.02326
G1 X184.816 Y169.179 E0.02327
G1 X184.769 Y169.919 E0.02324
G1 X184.761 Y171.092 E0.03677
G1 X184.713 Y171.857 E0.02403
G1 X184.617 Y172.616 E0.02401
G1 X184.473 Y173.369 E0.02401
G1 X184.378 Y173.739 E0.01200
G1 X184.283 Y174.110 E0.01200
G1 X184.047 Y174.838 E0.02400
G1 X183.753 Y175.574 E0.02484
G1 X183.439 Y176.243 E0.02318
G1 X183.070 Y176.914 E0.02401
G1 X182.659 Y177.561 E0.02401
G1 X182.209 Y178.180 E0.02401
G1 X181.721 Y178.770 E0.02401
G1 X181.312 Y179.206 E0.01874
G1 X180.020 Y180.144 E0.05005
G1 X174.706 Y183.516 E0.19735
G1 X169.191 Y186.548 E0.19734
G1 X163.496 Y189.228 E0.19734
G1 X157.644 Y191.545 E0.19735
G1 X153.276 Y192.965 E0.14401
G1 X156.141 Y195.820 E0.12684
G1 X156.327 Y196.075 E0.00990
G1 X156.419 Y196.360 E0.00938
