; generated by PrusaSlicer 2.2.0+linux-x64 on 2020-04-18 at 08:47:36 UTC

; 

; external perimeters extrusion width = 0.60mm
; perimeters extrusion width = 0.50mm
; infill extrusion width = 0.50mm
; solid infill extrusion width = 0.50mm
; top infill extrusion width = 0.45mm
; first layer extrusion width = 0.42mm

M73 P0 R131
M73 Q0 S134
M201 X1000 Y1000 Z1000 E5000 ; sets maximum accelerations, mm/sec^2
M203 X200 Y200 Z12 E120 ; sets maximum feedrates, mm/sec
M204 P1250 R1250 T1250 ; sets acceleration (P, T) and retract acceleration (R), mm/sec^2
M205 X8.00 Y8.00 Z0.40 E4.50 ; sets the jerk limits, mm/sec
M205 S0 T0 ; sets the minimum extruding and travel feed rate, mm/sec
M107
M862.3 P "MK3" ; printer model check
M862.1 P0.4 ; nozzle diameter check
M115 U3.8.1 ; tell printer latest fw version
G90 ; use absolute coordinates
M83 ; extruder relative mode
M104 S240 ; set extruder temp
M140 S85 ; set bed temp
M190 S85 ; wait for bed temp
M109 S240 ; wait for extruder temp
G28 W ; home all without mesh bed level
G80 ; mesh bed leveling
G1 Y-3.0 F1000.0 ; go outside print area
G92 E0.0
G1 X60.0 E9.0 F1000.0 ; intro line
M73 Q0 S134
M73 P0 R131
G1 X100.0 E12.5 F1000.0 ; intro line
G92 E0.0
M221 S95
G21 ; set units to millimeters
G90 ; use absolute coordinates
M83 ; use relative distances for extrusion
M900 K45 ; Filament gcode
;BEFORE_LAYER_CHANGE
G92 E0.0
;0.2


G1 E-1.40000 F2100.00000
G1 Z0.200 F10800.000
;AFTER_LAYER_CHANGE
;0.2
G1 Z0.400
G1 X14.492 Y62.562
G1 Z0.200
G1 E1.40000 F2100.00000
M204 S1000
G1 F1200.000
G1 X15.648 Y60.935 E0.06258
G1 X35.451 Y37.937 E0.95159
G1 X36.304 Y37.125 E0.03690
G1 X37.733 Y36.016 E0.05672
G1 X71.596 Y12.288 E1.29646
G1 X91.260 Y5.980 E0.64751
G1 X91.822 Y5.885 E0.01787
G1 X93.387 Y5.883 E0.04905
G1 X134.175 Y9.058 E1.28275
G1 X140.611 Y9.871 E0.20340
G1 X147.047 Y11.102 E0.20547
G1 X153.277 Y12.703 E0.20165
G1 X159.379 Y14.684 E0.20117
G1 X165.438 Y17.078 E0.20428
G1 X200.460 Y32.851 E1.20432
G1 X202.243 Y34.154 E0.06925
G1 X203.541 Y35.949 E0.06944
G1 X219.290 Y70.925 E1.20269
G1 X221.665 Y76.924 E0.20232
G1 X223.671 Y83.099 E0.20356
G1 X225.285 Y89.387 E0.20356
G1 X226.508 Y95.806 E0.20487
G1 X227.317 Y102.229 E0.20297
G1 X230.484 Y142.831 E1.27694
G1 X230.462 Y144.806 E0.06192
G1 X229.892 Y146.651 E0.06055
G1 X229.635 Y147.152 E0.01763
G1 X228.618 Y148.542 E0.05402
G1 X208.825 Y171.529 E0.95111
G1 X208.005 Y172.314 E0.03558
G1 X206.512 Y173.474 E0.05928
G1 X172.903 Y197.044 E1.28712
G1 X172.449 Y197.293 E0.01621
G1 X153.001 Y203.497 E0.64006
G1 X152.435 Y203.589 E0.01799
G1 X150.760 Y203.588 E0.05252
G1 X110.124 Y200.419 E1.27798
G1 X103.665 Y199.604 E0.20412
G1 X97.280 Y198.386 E0.20380
G1 X90.996 Y196.773 E0.20344
G1 X84.821 Y194.767 E0.20356
G1 X78.848 Y192.403 E0.20141
G1 X43.900 Y176.669 E1.20169
G1 X42.045 Y175.340 E0.07157
G1 X40.702 Y173.470 E0.07218
G1 X24.978 Y138.550 E1.20077
G1 X22.604 Y132.550 E0.20232
G1 X20.598 Y126.375 E0.20356
G1 X18.983 Y120.087 E0.20356
G1 X17.760 Y113.664 E0.20499
G1 X16.951 Y107.246 E0.20285
G1 X13.784 Y66.635 E1.27718
G1 X13.814 Y64.627 E0.06298
G1 X14.473 Y62.619 E0.06627
G1 F8640.000
G1 X15.648 Y60.935 E-0.47410
G1 X18.067 Y58.126 E-0.85590
G1 E-0.07000 F2100.00000
G1 Z0.400 F10800.000
G1 X194.520 Y41.043
G1 Z0.200
G1 E1.40000 F2100.00000
G1 F1200.000
G1 X196.824 Y38.726 E0.10246
G1 X197.007 Y38.593 E0.00707
G1 X197.178 Y38.538 E0.00563
G1 X197.357 Y38.538 E0.00564
G1 X197.528 Y38.593 E0.00564
G1 X197.674 Y38.699 E0.00563
G1 X197.779 Y38.844 E0.00563
G1 X197.835 Y39.015 E0.00564
G1 X197.835 Y39.195 E0.00564
G1 X197.779 Y39.366 E0.00563
G1 X197.647 Y39.548 E0.00707
G1 X195.330 Y41.853 E0.10246
G1 X194.562 Y41.085 E0.03405
G1 X194.286 Y40.743 F10800.000
G1 F1200.000
G1 X193.987 Y41.043 E0.01327
G1 X195.330 Y42.386 E0.05958
G1 X195.629 Y42.087 E0.01327
G1 X199.262 Y45.955 E0.16639
G1 X203.257 Y50.784 E0.19651
G1 X206.941 Y55.855 E0.19651
G1 X210.299 Y61.146 E0.19651
G1 X213.318 Y66.638 E0.19651
G1 X215.987 Y72.309 E0.19651
G1 X218.294 Y78.136 E0.19651
G1 X220.231 Y84.097 E0.19650
G1 X221.789 Y90.167 E0.19651
G1 X222.964 Y96.324 E0.19651
G1 X223.749 Y102.541 E0.19651
G1 X224.143 Y108.796 E0.19651
G1 X224.143 Y115.064 E0.19651
G1 X223.749 Y121.319 E0.19651
G1 X222.964 Y127.536 E0.19651
G1 X222.668 Y129.083 E0.04937
G1 X222.571 Y129.419 E0.01095
G1 X222.273 Y130.247 E0.02760
G1 X221.923 Y131.055 E0.02760
G1 X221.524 Y131.839 E0.02760
G1 X221.075 Y132.597 E0.02760
G1 X220.581 Y133.325 E0.02760
G1 X220.041 Y134.021 E0.02760
G1 X219.459 Y134.681 E0.02760
G1 X218.836 Y135.303 E0.02760
G1 X218.176 Y135.886 E0.02760
G1 X217.480 Y136.425 E0.02760
G1 X216.752 Y136.920 E0.02760
G1 X215.995 Y137.368 E0.02760
G1 X215.210 Y137.768 E0.02760
G1 X214.402 Y138.117 E0.02760
G1 X213.574 Y138.416 E0.02760
G1 X212.729 Y138.661 E0.02760
G1 X211.869 Y138.853 E0.02760
G1 X211.000 Y138.991 E0.02760
G1 X210.123 Y139.074 E0.02760
G1 X209.244 Y139.102 E0.02760
G1 X208.364 Y139.074 E0.02760
G1 X207.487 Y138.991 E0.02760
G1 X206.618 Y138.853 E0.02760
G1 X205.759 Y138.661 E0.02760
G1 X204.913 Y138.416 E0.02760
G1 X204.085 Y138.117 E0.02760
G1 X203.277 Y137.768 E0.02760
G1 X202.493 Y137.368 E0.02760
G1 X201.735 Y136.920 E0.02760
G1 X201.007 Y136.425 E0.02760
G1 X200.311 Y135.886 E0.02760
G1 X199.651 Y135.304 E0.02760
G1 X199.028 Y134.681 E0.02760
G1 X198.446 Y134.021 E0.02760
G1 X197.906 Y133.325 E0.02760
G1 X197.412 Y132.597 E0.02760
G1 X196.964 Y131.839 E0.02760
G1 X196.564 Y131.055 E0.02760
G1 X196.214 Y130.247 E0.02760
G1 X195.995 Y129.638 E0.02030
G1 X195.671 Y128.575 E0.03485
G1 X195.478 Y127.714 E0.02765
G1 X195.341 Y126.845 E0.02760
G1 X195.258 Y125.968 E0.02760
G1 X195.235 Y125.230 E0.02315
G1 X195.147 Y124.534 E0.02201
G1 X193.967 Y118.348 E0.19744
G1 X192.401 Y112.249 E0.19744
G1 X190.455 Y106.260 E0.19744
G1 X188.137 Y100.405 E0.19744
G1 X185.456 Y94.708 E0.19744
G1 X182.422 Y89.190 E0.19744
G1 X179.048 Y83.873 E0.19744
G1 X175.347 Y78.779 E0.19744
G1 X171.333 Y73.927 E0.19744
G1 X167.036 Y69.350 E0.19682
G1 X162.446 Y65.040 E0.19743
G1 X157.594 Y61.026 E0.19744
G1 X152.500 Y57.325 E0.19744
G1 X147.183 Y53.951 E0.19744
G1 X141.665 Y50.917 E0.19744
G1 X135.967 Y48.236 E0.19744
G1 X130.112 Y45.918 E0.19744
G1 X124.123 Y43.972 E0.19744
G1 X118.024 Y42.406 E0.19744
G1 X111.839 Y41.226 E0.19744
G1 X111.142 Y41.138 E0.02201
G1 X110.404 Y41.115 E0.02315
G1 X109.528 Y41.032 E0.02760
G1 X108.659 Y40.894 E0.02760
G1 X107.799 Y40.702 E0.02760
G1 X106.954 Y40.457 E0.02760
G1 X106.126 Y40.158 E0.02760
G1 X105.318 Y39.809 E0.02760
G1 X104.533 Y39.409 E0.02760
G1 X103.776 Y38.961 E0.02760
G1 X103.048 Y38.466 E0.02760
G1 X102.352 Y37.927 E0.02760
G1 X101.692 Y37.344 E0.02760
G1 X101.069 Y36.722 E0.02760
G1 X100.487 Y36.062 E0.02760
G1 X99.947 Y35.366 E0.02760
G1 X99.453 Y34.638 E0.02760
G1 X99.004 Y33.880 E0.02760
G1 X98.605 Y33.096 E0.02760
G1 X98.255 Y32.288 E0.02760
G1 X97.957 Y31.459 E0.02760
G1 X97.711 Y30.614 E0.02760
G1 X97.519 Y29.755 E0.02760
G1 X97.381 Y28.885 E0.02760
G1 X97.299 Y28.009 E0.02760
G1 X97.271 Y27.129 E0.02760
G1 X97.299 Y26.249 E0.02760
G1 X97.382 Y25.373 E0.02760
G1 X97.519 Y24.503 E0.02760
G1 X97.711 Y23.644 E0.02760
G1 X97.957 Y22.799 E0.02760
G1 X98.255 Y21.970 E0.02760
G1 X98.605 Y21.162 E0.02760
G1 X99.004 Y20.378 E0.02760
G1 X99.452 Y19.620 E0.02760
G1 X99.947 Y18.892 E0.02760
G1 X100.487 Y18.197 E0.02760
G1 X101.069 Y17.536 E0.02760
G1 X101.692 Y16.914 E0.02760
G1 X102.352 Y16.332 E0.02760
G1 X103.047 Y15.792 E0.02760
G1 X103.776 Y15.297 E0.02760
G1 X104.533 Y14.849 E0.02760
G1 X105.318 Y14.449 E0.02760
G1 X106.126 Y14.100 E0.02760
G1 X106.954 Y13.802 E0.02760
G1 X107.289 Y13.704 E0.01095
G1 X108.836 Y13.409 E0.04937
G1 X115.054 Y12.624 E0.19651
G1 X121.309 Y12.230 E0.19651
G1 X127.576 Y12.230 E0.19651
G1 X133.831 Y12.624 E0.19651
G1 X140.049 Y13.409 E0.19651
G1 X146.205 Y14.583 E0.19651
G1 X152.276 Y16.142 E0.19651
G1 X158.236 Y18.079 E0.19650
G1 X164.063 Y20.386 E0.19651
G1 X169.734 Y23.054 E0.19651
G1 X175.226 Y26.074 E0.19651
G1 X180.518 Y29.432 E0.19651
G1 X185.588 Y33.116 E0.19651
G1 X190.417 Y37.111 E0.19651
G1 X194.242 Y40.702 E0.16451
G1 X194.575 Y41.020 F10800.000
G1 F8640.000
G1 X193.987 Y41.043 E-0.09825
G1 X195.330 Y42.386 E-0.43873
G1 X195.629 Y42.087 E-0.09771
G1 X197.691 Y44.282 E-0.69531
G1 E-0.07000 F2100.00000
G1 Z0.400 F10800.000
G1 X105.549 Y13.938
G1 Z0.200
G1 E1.40000 F2100.00000
M73 Q0 S133
G1 F1200.000
G1 X105.157 Y14.108 E0.01339
G1 X104.352 Y14.518 E0.02835
G1 X103.573 Y14.979 E0.02835
G1 X103.313 Y15.156 E0.00988
G1 X102.959 Y14.433 E0.02525
G1 X105.490 Y13.950 E0.08081
G1 F8640.000
G1 X105.157 Y14.108 E-0.08513
G1 X104.352 Y14.518 E-0.20875
G1 X103.573 Y14.979 E-0.20875
G1 X103.313 Y15.156 E-0.07277
G1 X102.959 Y14.433 E-0.18594
G1 X105.378 Y13.971 E-0.56866
G1 E-0.07000 F2100.00000
M73 P0 R130
G1 Z0.400 F10800.000
G1 X102.919 Y15.209
G1 Z0.200
G1 E1.40000 F2100.00000
G1 F1200.000
G1 X102.949 Y15.270 E0.00212
G1 X102.050 Y15.967 E0.03566
G1 X100.907 Y16.975 E0.04778
G1 X100.631 Y16.306 E0.02267
G1 X100.515 Y16.085 E0.00784
G1 X100.371 Y15.880 E0.00785
G1 X99.880 Y15.302 E0.02377
G1 X102.620 Y14.599 E0.08870
G1 X102.893 Y15.155 E0.01944
G1 X102.983 Y15.188 F10800.000
G1 F8640.000
G1 X102.949 Y15.270 E-0.02943
G1 X102.050 Y15.967 E-0.26258
G1 X100.907 Y16.975 E-0.35190
G1 X100.631 Y16.306 E-0.16697
G1 X100.515 Y16.085 E-0.05773
G1 X100.371 Y15.880 E-0.05780
G1 X99.880 Y15.302 E-0.17508
G1 X100.839 Y15.056 E-0.22851
G1 E-0.07000 F2100.00000
G1 Z0.400 F10800.000
G1 X96.427 Y15.805
G1 Z0.200
G1 E1.40000 F2100.00000
G1 F1200.000
G1 X95.514 Y16.102 E0.03010
G1 X95.310 Y16.305 E0.00905
G1 X92.285 Y13.295 E0.13380
G1 X92.152 Y13.113 E0.00708
G1 X92.097 Y12.942 E0.00563
G1 X92.097 Y12.762 E0.00563
G1 X92.152 Y12.591 E0.00564
G1 X92.258 Y12.446 E0.00563
G1 X92.403 Y12.340 E0.00563
G1 X92.574 Y12.285 E0.00564
G1 X92.754 Y12.285 E0.00563
G1 X92.925 Y12.340 E0.00564
G1 X93.108 Y12.473 E0.00708
G1 X96.385 Y15.762 E0.14558
G1 F8640.000
G1 X95.514 Y16.102 E-0.21578
G1 X95.310 Y16.305 E-0.06661
G1 X92.285 Y13.295 E-0.98537
G1 X92.152 Y13.113 E-0.05213
G1 X92.139 Y13.071 E-0.01012
G1 E-0.07000 F2100.00000
G1 Z0.400 F10800.000
G1 X222.434 Y130.824
G1 Z0.200
G1 E1.40000 F2100.00000
G1 F1200.000
G1 X221.940 Y133.414 E0.08269
G1 X221.217 Y133.060 E0.02525
G1 X221.394 Y132.799 E0.00988
G1 X221.854 Y132.021 E0.02835
G1 X222.265 Y131.215 E0.02835
G1 X222.410 Y130.879 E0.01151
G1 F8640.000
G1 X221.940 Y133.414 E-0.59542
G1 X221.217 Y133.060 E-0.18594
G1 X221.394 Y132.799 E-0.07277
G1 X221.854 Y132.021 E-0.20875
G1 X222.265 Y131.215 E-0.20875
G1 X222.365 Y130.983 E-0.05837
G1 E-0.07000 F2100.00000
G1 Z0.400 F10800.000
G1 X221.152 Y133.448
G1 Z0.200
G1 E1.40000 F2100.00000
G1 F1200.000
G1 X221.774 Y133.753 E0.02173
G1 X221.070 Y136.493 E0.08870
G1 X220.493 Y136.001 E0.02378
G1 X220.288 Y135.858 E0.00785
G1 X220.066 Y135.741 E0.00784
G1 X219.398 Y135.466 E0.02267
G1 X220.406 Y134.322 E0.04778
G1 X221.099 Y133.428 E0.03548
G1 X221.358 Y133.105 F10800.000
G1 F8640.000
G1 X221.774 Y133.753 E-0.17283
G1 X221.070 Y136.493 E-0.65319
G1 X220.493 Y136.001 E-0.17509
G1 X220.288 Y135.858 E-0.05780
G1 X220.066 Y135.741 E-0.05773
G1 X219.398 Y135.466 E-0.16697
G1 X219.531 Y135.315 E-0.04640
G1 E-0.07000 F2100.00000
G1 Z0.400 F10800.000
G1 X220.568 Y139.946
G1 Z0.200
G1 E1.40000 F2100.00000
G1 F1200.000
G1 X223.899 Y143.265 E0.14746
G1 X224.032 Y143.448 E0.00708
G1 X224.088 Y143.619 E0.00564
G1 X224.088 Y143.798 E0.00563
G1 X224.032 Y143.969 E0.00564
G1 X223.927 Y144.115 E0.00563
G1 X223.781 Y144.220 E0.00563
G1 X223.610 Y144.276 E0.00564
G1 X223.431 Y144.276 E0.00563
G1 X223.260 Y144.220 E0.00563
G1 X223.077 Y144.088 E0.00708
G1 X220.067 Y141.063 E0.13380
G1 X220.271 Y140.859 E0.00905
G1 X220.549 Y140.003 E0.02822
G1 F8640.000
G1 X223.899 Y143.265 E-1.07976
G1 X224.032 Y143.448 E-0.05217
G1 X224.088 Y143.619 E-0.04151
G1 X224.088 Y143.798 E-0.04148
G1 X224.032 Y143.969 E-0.04150
G1 X223.927 Y144.115 E-0.04149
G1 X223.814 Y144.196 E-0.03209
G1 E-0.07000 F2100.00000
G1 Z0.400 F10800.000
G1 X194.621 Y40.409
G1 Z0.200
G1 E1.40000 F2100.00000
G1 F1200.000
G1 X196.578 Y38.439 E0.08708
G1 X196.833 Y38.253 E0.00989
G1 X197.118 Y38.161 E0.00938
G1 X197.417 Y38.161 E0.00938
G1 X197.702 Y38.253 E0.00938
G1 X197.944 Y38.429 E0.00938
G1 X198.119 Y38.671 E0.00938
G1 X198.212 Y38.956 E0.00938
G1 X198.212 Y39.255 E0.00938
G1 X198.119 Y39.539 E0.00938
G1 X197.934 Y39.794 E0.00989
G1 X195.963 Y41.752 E0.08708
G1 X199.617 Y45.642 E0.16734
G1 X203.631 Y50.494 E0.19744
G1 X207.332 Y55.589 E0.19744
G1 X210.706 Y60.905 E0.19744
G1 X213.740 Y66.423 E0.19744
G1 X216.421 Y72.121 E0.19744
G1 X218.739 Y77.976 E0.19744
G1 X220.685 Y83.965 E0.19744
G1 X222.251 Y90.064 E0.19744
G1 X223.431 Y96.250 E0.19744
G1 X224.220 Y102.497 E0.19744
G1 X224.616 Y108.782 E0.19744
G1 X224.616 Y115.078 E0.19744
G1 X224.220 Y121.363 E0.19744
G1 X223.431 Y127.610 E0.19744
G1 X222.251 Y133.796 E0.19744
G1 X220.760 Y139.605 E0.18803
G1 X224.187 Y143.019 E0.15169
G1 X224.372 Y143.275 E0.00990
G1 X224.465 Y143.559 E0.00938
G1 X224.465 Y143.858 E0.00938
G1 X224.372 Y144.143 E0.00938
G1 X224.197 Y144.385 E0.00938
G1 X223.955 Y144.561 E0.00938
G1 X223.670 Y144.653 E0.00938
G1 X223.371 Y144.653 E0.00938
G1 X223.086 Y144.561 E0.00938
G1 X222.831 Y144.375 E0.00990
G1 X220.116 Y141.646 E0.12069
G1 X218.739 Y145.884 E0.13970
G1 X216.421 Y151.739 E0.19744
G1 X213.740 Y157.437 E0.19744
G1 X210.706 Y162.955 E0.19744
G1 X207.332 Y168.271 E0.19744
G1 X206.389 Y169.569 E0.05031
G1 X205.951 Y169.981 E0.01886
G1 X205.358 Y170.471 E0.02410
G1 X204.736 Y170.923 E0.02410
G1 X204.087 Y171.335 E0.02410
G1 X203.414 Y171.705 E0.02410
G1 X202.905 Y171.944 E0.01761
G1 X202.002 Y172.316 E0.03063
G1 X201.272 Y172.553 E0.02406
G1 X200.728 Y172.693 E0.01761
G1 X199.771 Y172.889 E0.03063
G1 X199.010 Y172.985 E0.02406
G1 X198.242 Y173.033 E0.02413
G1 X197.069 Y173.041 E0.03677
G1 X196.332 Y173.088 E0.02315
G1 X195.599 Y173.180 E0.02317
G1 X194.873 Y173.319 E0.02317
G1 X194.158 Y173.502 E0.02317
G1 X193.640 Y173.670 E0.01705
G1 X192.769 Y174.002 E0.02924
G1 X192.099 Y174.317 E0.02322
G1 X191.451 Y174.673 E0.02317
G1 X190.827 Y175.069 E0.02317
G1 X190.230 Y175.504 E0.02317
G1 X189.660 Y175.975 E0.02317
G1 X189.126 Y176.476 E0.02297
G1 X171.703 Y193.900 E0.77259
G1 X171.368 Y193.565 E0.01485
G1 X188.782 Y176.151 E0.77219
G1 X189.347 Y175.620 E0.02430
G1 X189.940 Y175.130 E0.02410
G1 X190.562 Y174.678 E0.02410
G1 X191.211 Y174.266 E0.02410
G1 X191.884 Y173.896 E0.02410
G1 X192.580 Y173.569 E0.02410
G1 X193.295 Y173.285 E0.02410
G1 X194.026 Y173.048 E0.02410
G1 X194.770 Y172.857 E0.02410
G1 X195.322 Y172.752 E0.01761
G1 X196.289 Y172.616 E0.03063
G1 X197.056 Y172.568 E0.02408
G1 X198.229 Y172.560 E0.03677
G1 X198.965 Y172.514 E0.02315
G1 X199.699 Y172.421 E0.02317
G1 X200.424 Y172.282 E0.02317
G1 X201.140 Y172.099 E0.02317
G1 X201.843 Y171.870 E0.02317
G1 X202.530 Y171.598 E0.02317
G1 X203.199 Y171.284 E0.02317
G1 X203.846 Y170.928 E0.02317
G1 X204.470 Y170.532 E0.02317
G1 X205.068 Y170.097 E0.02317
G1 X205.638 Y169.626 E0.02317
G1 X206.033 Y169.255 E0.01700
G1 X206.941 Y168.005 E0.04844
G1 X210.299 Y162.714 E0.19651
G1 X213.318 Y157.222 E0.19651
G1 X215.987 Y151.551 E0.19651
G1 X218.294 Y145.724 E0.19651
G1 X219.740 Y141.272 E0.14676
G1 X219.532 Y141.064 E0.00922
G1 X219.940 Y140.656 E0.01809
G1 X220.231 Y139.763 E0.02944
G1 X220.728 Y137.825 E0.06273
G1 X220.757 Y137.512 E0.00987
G1 X220.726 Y137.231 E0.00887
G1 X220.643 Y136.962 E0.00882
G1 X220.509 Y136.711 E0.00892
G1 X220.267 Y136.429 E0.01164
G1 X219.963 Y136.216 E0.01165
G1 X219.697 Y136.106 E0.00903
G1 X219.334 Y136.043 E0.01154
G1 X219.050 Y136.057 E0.00892
G1 X218.732 Y136.143 E0.01033
G1 X218.690 Y136.086 E0.00223
G1 X217.759 Y136.808 E0.03696
G1 X217.006 Y137.320 E0.02854
G1 X216.224 Y137.782 E0.02849
G1 X215.187 Y138.293 E0.03624
G1 X214.576 Y138.558 E0.02086
G1 X213.720 Y138.866 E0.02853
G1 X212.846 Y139.120 E0.02853
G1 X211.958 Y139.318 E0.02854
G1 X211.059 Y139.461 E0.02854
G1 X210.155 Y139.546 E0.02849
G1 X208.999 Y139.567 E0.03624
